;  Created by Sandify
;  https://sandify.org
;  Version: 0.2.6
;
;  Machine type: Polar
;    Max radius (mm): 250
;    Start point: center
;    End point: center
;  Content type: shape
;  Layer:
;    Shape: Heart
;    Name: polygon
;    Visible: true
;    Initial width: 22
;    Initial height: 24
;    X offset: 0
;    Y offset: 0
;    Rotate (degrees): 0
;    Reverse path: false
;    Number of loops: 10
;    When transforming shape: smear
;    Scale: true
;      Scale (+/-): 100
;      Scale by: constant
;    Spin: false
;    Track: false
;    Fine tuning:
;      Connect to next layer: line
;      Draw portion of path (%): 100
;      Backtrack at end (%): 0
;      Rotate starting point (%): 0
;  Reverse export path: false
;
; File name: 'sandify'
; File type: scara
;

G01 X1.500 Y-1.500
G01 X1.492 Y-1.492
G01 X1.485 Y-1.485
G01 X1.477 Y-1.477
G01 X1.474 Y-1.474
G01 X1.474 Y-1.473
G01 X1.475 Y-1.470
G01 X1.479 Y-1.463
G01 X1.487 Y-1.451
G01 X1.500 Y-1.434
G01 X1.516 Y-1.413
G01 X1.536 Y-1.386
G01 X1.559 Y-1.356
G01 X1.585 Y-1.323
G01 X1.614 Y-1.286
G01 X1.644 Y-1.247
G01 X1.677 Y-1.206
G01 X1.712 Y-1.163
G01 X1.749 Y-1.119
G01 X1.787 Y-1.073
G01 X1.827 Y-1.025
G01 X1.869 Y-0.976
G01 X1.913 Y-0.925
G01 X1.959 Y-0.874
G01 X2.006 Y-0.821
G01 X2.054 Y-0.767
G01 X2.104 Y-0.713
G01 X2.155 Y-0.658
G01 X2.207 Y-0.602
G01 X2.260 Y-0.546
G01 X2.314 Y-0.490
G01 X2.368 Y-0.434
G01 X2.423 Y-0.378
G01 X2.478 Y-0.322
G01 X2.534 Y-0.267
G01 X2.590 Y-0.211
G01 X2.647 Y-0.156
G01 X2.705 Y-0.100
G01 X2.765 Y-0.044
G01 X2.826 Y0.014
G01 X2.890 Y0.073
G01 X2.957 Y0.136
G01 X3.027 Y0.201
G01 X3.103 Y0.271
G01 X3.183 Y0.346
G01 X3.269 Y0.427
G01 X3.360 Y0.514
G01 X3.455 Y0.606
G01 X3.457 Y0.608
G01 X3.555 Y0.703
G01 X3.557 Y0.706
G01 X3.656 Y0.804
G01 X3.660 Y0.808
G01 X3.758 Y0.906
G01 X3.761 Y0.910
G01 X3.856 Y1.007
G01 X3.859 Y1.010
G01 X3.949 Y1.104
G01 X3.950 Y1.105
G01 X4.032 Y1.193
G01 X4.104 Y1.272
G01 X4.166 Y1.341
G01 X4.217 Y1.401
G01 X4.259 Y1.452
G01 X4.292 Y1.494
G01 X4.317 Y1.529
G01 X4.337 Y1.557
G01 X4.350 Y1.579
G01 X4.360 Y1.597
G01 X4.366 Y1.609
G01 X4.369 Y1.619
G01 X4.370 Y1.625
G01 X4.369 Y1.629
G01 X4.369 Y1.631
G01 X4.368 Y1.632
G01 X4.367 Y1.633
G01 X4.368 Y1.633
G01 X4.371 Y1.634
G01 X4.376 Y1.637
G01 X4.384 Y1.641
G01 X4.396 Y1.648
G01 X4.412 Y1.658
G01 X4.433 Y1.673
G01 X4.460 Y1.693
G01 X4.494 Y1.719
G01 X4.536 Y1.753
G01 X4.586 Y1.796
G01 X4.646 Y1.847
G01 X4.715 Y1.909
G01 X4.789 Y1.977
G01 X4.793 Y1.982
G01 X4.871 Y2.055
G01 X4.881 Y2.065
G01 X4.961 Y2.142
G01 X4.975 Y2.156
G01 X5.057 Y2.236
G01 X5.075 Y2.254
G01 X5.156 Y2.336
G01 X5.176 Y2.357
G01 X5.255 Y2.437
G01 X5.277 Y2.460
G01 X5.352 Y2.539
G01 X5.374 Y2.562
G01 X5.445 Y2.637
G01 X5.466 Y2.660
G01 X5.532 Y2.732
G01 X5.551 Y2.753
G01 X5.613 Y2.821
G01 X5.630 Y2.841
G01 X5.688 Y2.905
G01 X5.704 Y2.923
G01 X5.758 Y2.984
G01 X5.771 Y3.000
G01 X5.823 Y3.059
G01 X5.835 Y3.073
G01 X5.885 Y3.130
G01 X5.895 Y3.142
G01 X5.943 Y3.197
G01 X5.952 Y3.208
G01 X6.000 Y3.262
G01 X6.008 Y3.271
G01 X6.055 Y3.325
G01 X6.062 Y3.332
G01 X6.110 Y3.385
G01 X6.116 Y3.392
G01 X6.164 Y3.445
G01 X6.170 Y3.451
G01 X6.218 Y3.503
G01 X6.223 Y3.509
G01 X6.272 Y3.561
G01 X6.277 Y3.567
G01 X6.326 Y3.618
G01 X6.332 Y3.623
G01 X6.381 Y3.674
G01 X6.386 Y3.680
G01 X6.436 Y3.730
G01 X6.441 Y3.735
G01 X6.491 Y3.785
G01 X6.496 Y3.790
G01 X6.547 Y3.839
G01 X6.551 Y3.844
G01 X6.602 Y3.892
G01 X6.606 Y3.896
G01 X6.658 Y3.945
G01 X6.661 Y3.948
G01 X6.713 Y3.996
G01 X6.715 Y3.998
G01 X6.767 Y4.045
G01 X6.769 Y4.047
G01 X6.821 Y4.093
G01 X6.822 Y4.093
G01 X6.874 Y4.138
G01 X6.874 Y4.138
G01 X6.925 Y4.181
G01 X6.975 Y4.222
G01 X7.024 Y4.262
G01 X7.072 Y4.299
G01 X7.118 Y4.333
G01 X7.163 Y4.366
G01 X7.206 Y4.397
G01 X7.247 Y4.426
G01 X7.285 Y4.452
G01 X7.321 Y4.476
G01 X7.353 Y4.498
G01 X7.381 Y4.516
G01 X7.405 Y4.530
G01 X7.423 Y4.541
G01 X7.436 Y4.548
G01 X7.444 Y4.551
G01 X7.448 Y4.552
G01 X7.448 Y4.553
G01 X7.449 Y4.557
G01 X7.451 Y4.565
G01 X7.458 Y4.578
G01 X7.468 Y4.597
G01 X7.481 Y4.622
G01 X7.499 Y4.651
G01 X7.519 Y4.684
G01 X7.542 Y4.721
G01 X7.566 Y4.759
G01 X7.567 Y4.760
G01 X7.593 Y4.800
G01 X7.594 Y4.803
G01 X7.621 Y4.843
G01 X7.624 Y4.847
G01 X7.652 Y4.888
G01 X7.655 Y4.893
G01 X7.684 Y4.935
G01 X7.689 Y4.941
G01 X7.719 Y4.983
G01 X7.724 Y4.990
G01 X7.756 Y5.033
G01 X7.761 Y5.041
G01 X7.794 Y5.084
G01 X7.801 Y5.093
G01 X7.835 Y5.137
G01 X7.842 Y5.146
G01 X7.877 Y5.190
G01 X7.885 Y5.200
G01 X7.921 Y5.244
G01 X7.930 Y5.254
G01 X7.967 Y5.298
G01 X7.977 Y5.310
G01 X8.015 Y5.353
G01 X8.025 Y5.366
G01 X8.063 Y5.409
G01 X8.075 Y5.422
G01 X8.114 Y5.465
G01 X8.126 Y5.479
G01 X8.165 Y5.521
G01 X8.179 Y5.535
G01 X8.218 Y5.577
G01 X8.232 Y5.592
G01 X8.272 Y5.633
G01 X8.286 Y5.648
G01 X8.326 Y5.689
G01 X8.341 Y5.704
G01 X8.381 Y5.744
G01 X8.396 Y5.760
G01 X8.437 Y5.799
G01 X8.453 Y5.814
G01 X8.494 Y5.854
G01 X8.510 Y5.869
G01 X8.552 Y5.908
G01 X8.568 Y5.923
G01 X8.610 Y5.962
G01 X8.628 Y5.978
G01 X8.670 Y6.016
G01 X8.689 Y6.032
G01 X8.732 Y6.070
G01 X8.752 Y6.088
G01 X8.796 Y6.126
G01 X8.818 Y6.145
G01 X8.862 Y6.184
G01 X8.887 Y6.205
G01 X8.933 Y6.244
G01 X8.960 Y6.268
G01 X9.007 Y6.309
G01 X9.038 Y6.336
G01 X9.086 Y6.378
G01 X9.120 Y6.409
G01 X9.171 Y6.453
G01 X9.208 Y6.487
G01 X9.261 Y6.535
G01 X9.302 Y6.572
G01 X9.357 Y6.623
G01 X9.400 Y6.664
G01 X9.457 Y6.718
G01 X9.502 Y6.761
G01 X9.559 Y6.817
G01 X9.605 Y6.862
G01 X9.662 Y6.919
G01 X9.706 Y6.965
G01 X9.762 Y7.022
G01 X9.803 Y7.065
G01 X9.856 Y7.121
G01 X9.893 Y7.162
G01 X9.941 Y7.215
G01 X9.973 Y7.251
G01 X10.017 Y7.301
G01 X10.043 Y7.332
G01 X10.082 Y7.379
G01 X10.102 Y7.404
G01 X10.136 Y7.447
G01 X10.151 Y7.467
G01 X10.179 Y7.506
G01 X10.190 Y7.521
G01 X10.213 Y7.556
G01 X10.220 Y7.566
G01 X10.239 Y7.597
G01 X10.243 Y7.604
G01 X10.258 Y7.632
G01 X10.259 Y7.634
G01 X10.271 Y7.659
G01 X10.278 Y7.679
G01 X10.281 Y7.694
G01 X10.283 Y7.705
G01 X10.282 Y7.712
G01 X10.281 Y7.717
G01 X10.280 Y7.720
G01 X10.279 Y7.721
G01 X10.278 Y7.722
G01 X10.280 Y7.722
G01 X10.283 Y7.722
G01 X10.290 Y7.723
G01 X10.300 Y7.725
G01 X10.313 Y7.730
G01 X10.332 Y7.738
G01 X10.356 Y7.750
G01 X10.385 Y7.767
G01 X10.386 Y7.768
G01 X10.417 Y7.788
G01 X10.423 Y7.791
G01 X10.457 Y7.815
G01 X10.467 Y7.822
G01 X10.505 Y7.850
G01 X10.521 Y7.862
G01 X10.561 Y7.893
G01 X10.583 Y7.911
G01 X10.626 Y7.946
G01 X10.654 Y7.970
G01 X10.700 Y8.010
G01 X10.735 Y8.040
G01 X10.783 Y8.084
G01 X10.824 Y8.121
G01 X10.874 Y8.168
G01 X10.920 Y8.212
G01 X10.971 Y8.261
G01 X11.020 Y8.309
G01 X11.070 Y8.360
G01 X11.120 Y8.411
G01 X11.121 Y8.412
G01 X11.170 Y8.462
G01 X11.219 Y8.513
G01 X11.221 Y8.516
G01 X11.268 Y8.566
G01 X11.314 Y8.615
G01 X11.317 Y8.618
G01 X11.361 Y8.667
G01 X11.404 Y8.715
G01 X11.407 Y8.718
G01 X11.449 Y8.765
G01 X11.488 Y8.810
G01 X11.491 Y8.813
G01 X11.529 Y8.858
G01 X11.566 Y8.901
G01 X11.568 Y8.903
G01 X11.604 Y8.946
G01 X11.638 Y8.987
G01 X11.638 Y8.988
G01 X11.672 Y9.029
G01 X11.704 Y9.068
G01 X11.736 Y9.107
G01 X11.765 Y9.143
G01 X11.796 Y9.181
G01 X11.822 Y9.214
G01 X11.853 Y9.251
G01 X11.878 Y9.282
G01 X11.908 Y9.318
G01 X11.931 Y9.347
G01 X11.961 Y9.383
G01 X11.984 Y9.411
G01 X12.014 Y9.446
G01 X12.036 Y9.472
G01 X12.067 Y9.507
G01 X12.089 Y9.532
G01 X12.119 Y9.566
G01 X12.141 Y9.591
G01 X12.172 Y9.625
G01 X12.195 Y9.649
G01 X12.226 Y9.682
G01 X12.249 Y9.706
G01 X12.280 Y9.739
G01 X12.303 Y9.763
G01 X12.335 Y9.795
G01 X12.358 Y9.818
G01 X12.391 Y9.849
G01 X12.414 Y9.872
G01 X12.447 Y9.903
G01 X12.470 Y9.925
G01 X12.503 Y9.956
G01 X12.526 Y9.977
G01 X12.559 Y10.007
G01 X12.582 Y10.027
G01 X12.616 Y10.057
G01 X12.637 Y10.076
G01 X12.672 Y10.105
G01 X12.693 Y10.123
G01 X12.727 Y10.151
G01 X12.748 Y10.168
G01 X12.782 Y10.195
G01 X12.802 Y10.210
G01 X12.837 Y10.236
G01 X12.856 Y10.251
G01 X12.890 Y10.275
G01 X12.909 Y10.289
G01 X12.943 Y10.312
G01 X12.961 Y10.325
G01 X12.994 Y10.347
G01 X13.011 Y10.359
G01 X13.044 Y10.380
G01 X13.061 Y10.390
G01 X13.093 Y10.410
G01 X13.109 Y10.420
G01 X13.141 Y10.439
G01 X13.155 Y10.447
G01 X13.187 Y10.465
G01 X13.200 Y10.473
G01 X13.230 Y10.489
G01 X13.242 Y10.496
G01 X13.272 Y10.512
G01 X13.281 Y10.517
G01 X13.310 Y10.532
G01 X13.316 Y10.535
G01 X13.344 Y10.549
G01 X13.347 Y10.550
G01 X13.373 Y10.562
G01 X13.393 Y10.570
G01 X13.408 Y10.576
G01 X13.417 Y10.578
G01 X13.423 Y10.577
G01 X13.422 Y10.579
G01 X13.422 Y10.583
G01 X13.423 Y10.593
G01 X13.428 Y10.608
G01 X13.436 Y10.629
G01 X13.447 Y10.655
G01 X13.447 Y10.656
G01 X13.459 Y10.683
G01 X13.461 Y10.688
G01 X13.475 Y10.716
G01 X13.479 Y10.724
G01 X13.493 Y10.753
G01 X13.498 Y10.764
G01 X13.513 Y10.793
G01 X13.520 Y10.807
G01 X13.536 Y10.837
G01 X13.544 Y10.853
G01 X13.561 Y10.883
G01 X13.570 Y10.901
G01 X13.588 Y10.931
G01 X13.598 Y10.950
G01 X13.617 Y10.981
G01 X13.628 Y11.002
G01 X13.648 Y11.033
G01 X13.660 Y11.054
G01 X13.681 Y11.086
G01 X13.695 Y11.108
G01 X13.716 Y11.139
G01 X13.731 Y11.162
G01 X13.754 Y11.194
G01 X13.770 Y11.218
G01 X13.793 Y11.250
G01 X13.811 Y11.274
G01 X13.835 Y11.306
G01 X13.854 Y11.331
G01 X13.878 Y11.362
G01 X13.899 Y11.388
G01 X13.924 Y11.419
G01 X13.945 Y11.446
G01 X13.971 Y11.476
G01 X13.994 Y11.503
G01 X14.020 Y11.533
G01 X14.044 Y11.561
G01 X14.071 Y11.590
G01 X14.096 Y11.618
G01 X14.123 Y11.647
G01 X14.148 Y11.675
G01 X14.176 Y11.704
G01 X14.202 Y11.732
G01 X14.230 Y11.760
G01 X14.257 Y11.788
G01 X14.285 Y11.815
G01 X14.313 Y11.843
G01 X14.342 Y11.870
G01 X14.370 Y11.897
G01 X14.399 Y11.924
G01 X14.428 Y11.951
G01 X14.428 Y11.951
G01 X14.458 Y11.977
G01 X14.487 Y12.003
G01 X14.488 Y12.004
G01 X14.517 Y12.029
G01 X14.547 Y12.056
G01 X14.549 Y12.057
G01 X14.579 Y12.082
G01 X14.609 Y12.108
G01 X14.612 Y12.110
G01 X14.642 Y12.135
G01 X14.673 Y12.160
G01 X14.677 Y12.163
G01 X14.708 Y12.188
G01 X14.740 Y12.214
G01 X14.745 Y12.218
G01 X14.777 Y12.244
G01 X14.809 Y12.270
G01 X14.816 Y12.276
G01 X14.849 Y12.302
G01 X14.882 Y12.328
G01 X14.892 Y12.336
G01 X14.926 Y12.363
G01 X14.960 Y12.391
G01 X14.972 Y12.401
G01 X15.007 Y12.430
G01 X15.042 Y12.459
G01 X15.057 Y12.472
G01 X15.093 Y12.502
G01 X15.130 Y12.533
G01 X15.148 Y12.548
G01 X15.185 Y12.580
G01 X15.223 Y12.613
G01 X15.243 Y12.631
G01 X15.282 Y12.666
G01 X15.321 Y12.701
G01 X15.343 Y12.721
G01 X15.383 Y12.758
G01 X15.423 Y12.795
G01 X15.446 Y12.817
G01 X15.486 Y12.856
G01 X15.527 Y12.895
G01 X15.550 Y12.918
G01 X15.590 Y12.957
G01 X15.629 Y12.998
G01 X15.651 Y13.020
G01 X15.690 Y13.060
G01 X15.728 Y13.100
G01 X15.747 Y13.121
G01 X15.784 Y13.161
G01 X15.820 Y13.201
G01 X15.836 Y13.219
G01 X15.870 Y13.257
G01 X15.902 Y13.295
G01 X15.915 Y13.310
G01 X15.945 Y13.347
G01 X15.974 Y13.383
G01 X15.982 Y13.393
G01 X16.009 Y13.428
G01 X16.034 Y13.461
G01 X16.039 Y13.468
G01 X16.061 Y13.500
G01 X16.083 Y13.531
G01 X16.084 Y13.534
G01 X16.103 Y13.563
G01 X16.120 Y13.590
G01 X16.136 Y13.617
G01 X16.148 Y13.639
G01 X16.160 Y13.663
G01 X16.167 Y13.679
G01 X16.176 Y13.702
G01 X16.181 Y13.713
G01 X16.187 Y13.733
G01 X16.189 Y13.741
G01 X16.193 Y13.759
G01 X16.194 Y13.763
G01 X16.195 Y13.779
G01 X16.195 Y13.780
G01 X16.195 Y13.792
G01 X16.193 Y13.802
G01 X16.191 Y13.808
G01 X16.189 Y13.811
G01 X16.187 Y13.813
G01 X16.187 Y13.813
G01 X16.189 Y13.812
G01 X16.194 Y13.811
G01 X16.202 Y13.811
G01 X16.214 Y13.811
G01 X16.229 Y13.814
G01 X16.249 Y13.819
G01 X16.250 Y13.820
G01 X16.271 Y13.827
G01 X16.277 Y13.829
G01 X16.299 Y13.839
G01 X16.310 Y13.844
G01 X16.334 Y13.856
G01 X16.350 Y13.864
G01 X16.376 Y13.879
G01 X16.398 Y13.892
G01 X16.426 Y13.910
G01 X16.454 Y13.928
G01 X16.484 Y13.949
G01 X16.515 Y13.972
G01 X16.519 Y13.975
G01 X16.551 Y13.999
G01 X16.584 Y14.024
G01 X16.593 Y14.031
G01 X16.627 Y14.059
G01 X16.662 Y14.088
G01 X16.676 Y14.100
G01 X16.711 Y14.130
G01 X16.748 Y14.162
G01 X16.767 Y14.179
G01 X16.803 Y14.212
G01 X16.840 Y14.246
G01 X16.864 Y14.268
G01 X16.901 Y14.303
G01 X16.938 Y14.339
G01 X16.964 Y14.365
G01 X17.001 Y14.401
G01 X17.038 Y14.438
G01 X17.066 Y14.467
G01 X17.102 Y14.504
G01 X17.137 Y14.541
G01 X17.165 Y14.572
G01 X17.199 Y14.608
G01 X17.232 Y14.645
G01 X17.260 Y14.676
G01 X17.292 Y14.712
G01 X17.323 Y14.747
G01 X17.348 Y14.777
G01 X17.378 Y14.812
G01 X17.407 Y14.846
G01 X17.430 Y14.874
G01 X17.457 Y14.908
G01 X17.484 Y14.941
G01 X17.504 Y14.967
G01 X17.530 Y14.999
G01 X17.555 Y15.030
G01 X17.573 Y15.054
G01 X17.597 Y15.085
G01 X17.620 Y15.115
G01 X17.635 Y15.136
G01 X17.658 Y15.166
G01 X17.680 Y15.195
G01 X17.694 Y15.214
G01 X17.716 Y15.243
G01 X17.737 Y15.271
G01 X17.749 Y15.288
G01 X17.770 Y15.316
G01 X17.791 Y15.343
G01 X17.802 Y15.358
G01 X17.823 Y15.385
G01 X17.844 Y15.413
G01 X17.853 Y15.425
G01 X17.875 Y15.452
G01 X17.895 Y15.479
G01 X17.904 Y15.491
G01 X17.926 Y15.517
G01 X17.947 Y15.543
G01 X17.955 Y15.554
G01 X17.977 Y15.579
G01 X17.998 Y15.605
G01 X18.006 Y15.615
G01 X18.028 Y15.640
G01 X18.050 Y15.666
G01 X18.058 Y15.675
G01 X18.080 Y15.700
G01 X18.103 Y15.725
G01 X18.110 Y15.734
G01 X18.133 Y15.758
G01 X18.156 Y15.782
G01 X18.164 Y15.791
G01 X18.187 Y15.815
G01 X18.210 Y15.839
G01 X18.218 Y15.847
G01 X18.242 Y15.871
G01 X18.266 Y15.894
G01 X18.274 Y15.902
G01 X18.298 Y15.925
G01 X18.322 Y15.949
G01 X18.330 Y15.956
G01 X18.354 Y15.979
G01 X18.379 Y16.002
G01 X18.386 Y16.009
G01 X18.411 Y16.031
G01 X18.436 Y16.053
G01 X18.443 Y16.059
G01 X18.469 Y16.081
G01 X18.494 Y16.103
G01 X18.501 Y16.108
G01 X18.526 Y16.129
G01 X18.552 Y16.151
G01 X18.558 Y16.155
G01 X18.584 Y16.176
G01 X18.610 Y16.197
G01 X18.615 Y16.200
G01 X18.642 Y16.220
G01 X18.668 Y16.240
G01 X18.672 Y16.243
G01 X18.699 Y16.262
G01 X18.726 Y16.281
G01 X18.729 Y16.283
G01 X18.756 Y16.301
G01 X18.783 Y16.319
G01 X18.785 Y16.321
G01 X18.812 Y16.338
G01 X18.839 Y16.355
G01 X18.841 Y16.356
G01 X18.868 Y16.372
G01 X18.895 Y16.388
G01 X18.896 Y16.389
G01 X18.922 Y16.404
G01 X18.949 Y16.419
G01 X18.950 Y16.420
G01 X18.976 Y16.433
G01 X19.003 Y16.448
G01 X19.003 Y16.448
G01 X19.029 Y16.461
G01 X19.055 Y16.474
G01 X19.080 Y16.486
G01 X19.105 Y16.498
G01 X19.129 Y16.509
G01 X19.153 Y16.520
G01 X19.177 Y16.530
G01 X19.198 Y16.540
G01 X19.222 Y16.549
G01 X19.240 Y16.557
G01 X19.264 Y16.566
G01 X19.278 Y16.572
G01 X19.301 Y16.580
G01 X19.312 Y16.584
G01 X19.334 Y16.592
G01 X19.341 Y16.594
G01 X19.362 Y16.600
G01 X19.363 Y16.600
G01 X19.380 Y16.604
G01 X19.390 Y16.605
G01 X19.397 Y16.603
G01 X19.396 Y16.605
G01 X19.395 Y16.610
G01 X19.395 Y16.621
G01 X19.398 Y16.638
G01 X19.403 Y16.658
G01 X19.404 Y16.661
G01 X19.410 Y16.683
G01 X19.413 Y16.691
G01 X19.420 Y16.713
G01 X19.424 Y16.725
G01 X19.433 Y16.749
G01 X19.438 Y16.765
G01 X19.448 Y16.788
G01 X19.455 Y16.808
G01 X19.465 Y16.832
G01 X19.473 Y16.854
G01 X19.484 Y16.879
G01 X19.493 Y16.902
G01 X19.494 Y16.904
G01 X19.505 Y16.928
G01 X19.515 Y16.952
G01 X19.516 Y16.955
G01 X19.528 Y16.980
G01 X19.539 Y17.004
G01 X19.540 Y17.008
G01 X19.553 Y17.033
G01 X19.565 Y17.058
G01 X19.567 Y17.063
G01 X19.581 Y17.088
G01 X19.593 Y17.113
G01 X19.596 Y17.119
G01 X19.610 Y17.144
G01 X19.624 Y17.169
G01 X19.627 Y17.175
G01 X19.642 Y17.201
G01 X19.656 Y17.226
G01 X19.661 Y17.233
G01 X19.677 Y17.259
G01 X19.692 Y17.283
G01 X19.696 Y17.291
G01 X19.713 Y17.317
G01 X19.729 Y17.341
G01 X19.735 Y17.350
G01 X19.752 Y17.375
G01 X19.769 Y17.400
G01 X19.775 Y17.409
G01 X19.794 Y17.434
G01 X19.811 Y17.458
G01 X19.818 Y17.468
G01 X19.837 Y17.492
G01 X19.855 Y17.516
G01 X19.864 Y17.527
G01 X19.883 Y17.551
G01 X19.902 Y17.575
G01 X19.911 Y17.586
G01 X19.931 Y17.610
G01 X19.950 Y17.633
G01 X19.960 Y17.645
G01 X19.980 Y17.668
G01 X20.000 Y17.691
G01 X20.011 Y17.703
G01 X20.031 Y17.726
G01 X20.051 Y17.748
G01 X20.063 Y17.761
G01 X20.084 Y17.783
G01 X20.104 Y17.805
G01 X20.117 Y17.818
G01 X20.138 Y17.839
G01 X20.159 Y17.861
G01 X20.172 Y17.874
G01 X20.193 Y17.894
G01 X20.215 Y17.915
G01 X20.228 Y17.928
G01 X20.250 Y17.949
G01 X20.272 Y17.969
G01 X20.285 Y17.982
G01 X20.308 Y18.002
G01 X20.330 Y18.022
G01 X20.345 Y18.034
G01 X20.368 Y18.054
G01 X20.390 Y18.073
G01 X20.405 Y18.086
G01 X20.429 Y18.105
G01 X20.452 Y18.124
G01 X20.468 Y18.137
G01 X20.492 Y18.156
G01 X20.516 Y18.175
G01 X20.533 Y18.189
G01 X20.557 Y18.207
G01 X20.581 Y18.225
G01 X20.600 Y18.240
G01 X20.625 Y18.258
G01 X20.650 Y18.277
G01 X20.671 Y18.293
G01 X20.696 Y18.311
G01 X20.721 Y18.330
G01 X20.745 Y18.348
G01 X20.770 Y18.366
G01 X20.796 Y18.386
G01 X20.823 Y18.406
G01 X20.849 Y18.425
G01 X20.876 Y18.445
G01 X20.903 Y18.466
G01 X20.906 Y18.468
G01 X20.933 Y18.489
G01 X20.961 Y18.510
G01 X20.989 Y18.532
G01 X20.993 Y18.536
G01 X21.022 Y18.558
G01 X21.050 Y18.580
G01 X21.079 Y18.604
G01 X21.086 Y18.610
G01 X21.115 Y18.633
G01 X21.145 Y18.658
G01 X21.175 Y18.683
G01 X21.184 Y18.691
G01 X21.214 Y18.716
G01 X21.245 Y18.743
G01 X21.275 Y18.770
G01 X21.286 Y18.779
G01 X21.317 Y18.807
G01 X21.348 Y18.835
G01 X21.379 Y18.864
G01 X21.390 Y18.874
G01 X21.421 Y18.903
G01 X21.452 Y18.933
G01 X21.483 Y18.963
G01 X21.494 Y18.973
G01 X21.525 Y19.004
G01 X21.555 Y19.035
G01 X21.586 Y19.066
G01 X21.595 Y19.076
G01 X21.625 Y19.107
G01 X21.654 Y19.138
G01 X21.683 Y19.170
G01 X21.691 Y19.178
G01 X21.719 Y19.209
G01 X21.746 Y19.240
G01 X21.773 Y19.271
G01 X21.778 Y19.277
G01 X21.804 Y19.307
G01 X21.829 Y19.337
G01 X21.853 Y19.367
G01 X21.855 Y19.370
G01 X21.878 Y19.399
G01 X21.900 Y19.428
G01 X21.920 Y19.456
G01 X21.940 Y19.483
G01 X21.959 Y19.510
G01 X21.974 Y19.533
G01 X21.990 Y19.559
G01 X22.006 Y19.584
G01 X22.017 Y19.601
G01 X22.030 Y19.626
G01 X22.043 Y19.649
G01 X22.049 Y19.661
G01 X22.060 Y19.684
G01 X22.070 Y19.706
G01 X22.073 Y19.713
G01 X22.081 Y19.734
G01 X22.089 Y19.754
G01 X22.090 Y19.757
G01 X22.096 Y19.776
G01 X22.100 Y19.794
G01 X22.104 Y19.811
G01 X22.106 Y19.824
G01 X22.107 Y19.840
G01 X22.108 Y19.849
G01 X22.107 Y19.863
G01 X22.107 Y19.868
G01 X22.105 Y19.882
G01 X22.104 Y19.883
G01 X22.101 Y19.894
G01 X22.097 Y19.901
G01 X22.095 Y19.905
G01 X22.093 Y19.907
G01 X22.093 Y19.907
G01 X22.096 Y19.906
G01 X22.102 Y19.903
G01 X22.111 Y19.901
G01 X22.125 Y19.900
G01 X22.140 Y19.900
G01 X22.143 Y19.900
G01 X22.160 Y19.902
G01 X22.167 Y19.903
G01 X22.185 Y19.907
G01 X22.196 Y19.910
G01 X22.215 Y19.916
G01 X22.232 Y19.921
G01 X22.253 Y19.929
G01 X22.273 Y19.938
G01 X22.275 Y19.938
G01 X22.297 Y19.949
G01 X22.319 Y19.959
G01 X22.326 Y19.963
G01 X22.349 Y19.976
G01 X22.373 Y19.989
G01 X22.386 Y19.996
G01 X22.410 Y20.012
G01 X22.435 Y20.027
G01 X22.454 Y20.040
G01 X22.480 Y20.057
G01 X22.506 Y20.076
G01 X22.531 Y20.094
G01 X22.558 Y20.114
G01 X22.586 Y20.136
G01 X22.614 Y20.158
G01 X22.616 Y20.159
G01 X22.644 Y20.183
G01 X22.673 Y20.206
G01 X22.702 Y20.231
G01 X22.709 Y20.237
G01 X22.738 Y20.262
G01 X22.767 Y20.288
G01 X22.796 Y20.315
G01 X22.807 Y20.324
G01 X22.836 Y20.352
G01 X22.866 Y20.380
G01 X22.895 Y20.408
G01 X22.908 Y20.421
G01 X22.937 Y20.449
G01 X22.966 Y20.478
G01 X22.994 Y20.507
G01 X23.010 Y20.523
G01 X23.038 Y20.552
G01 X23.065 Y20.582
G01 X23.092 Y20.611
G01 X23.108 Y20.628
G01 X23.135 Y20.658
G01 X23.161 Y20.687
G01 X23.186 Y20.716
G01 X23.202 Y20.734
G01 X23.227 Y20.763
G01 X23.251 Y20.791
G01 X23.274 Y20.820
G01 X23.288 Y20.837
G01 X23.311 Y20.865
G01 X23.334 Y20.893
G01 X23.355 Y20.920
G01 X23.368 Y20.936
G01 X23.389 Y20.963
G01 X23.409 Y20.990
G01 X23.429 Y21.017
G01 X23.440 Y21.031
G01 X23.459 Y21.057
G01 X23.478 Y21.083
G01 X23.497 Y21.108
G01 X23.505 Y21.121
G01 X23.524 Y21.146
G01 X23.541 Y21.171
G01 X23.558 Y21.196
G01 X23.565 Y21.206
G01 X23.583 Y21.230
G01 X23.599 Y21.254
G01 X23.616 Y21.278
G01 X23.621 Y21.286
G01 X23.638 Y21.310
G01 X23.654 Y21.333
G01 X23.670 Y21.357
G01 X23.674 Y21.363
G01 X23.690 Y21.386
G01 X23.706 Y21.409
G01 X23.721 Y21.431
G01 X23.724 Y21.436
G01 X23.740 Y21.458
G01 X23.756 Y21.480
G01 X23.771 Y21.503
G01 X23.773 Y21.505
G01 X23.790 Y21.527
G01 X23.806 Y21.549
G01 X23.821 Y21.571
G01 X23.822 Y21.572
G01 X23.839 Y21.594
G01 X23.855 Y21.615
G01 X23.871 Y21.637
G01 X23.871 Y21.637
G01 X23.888 Y21.658
G01 X23.905 Y21.679
G01 X23.921 Y21.700
G01 X23.921 Y21.700
G01 X23.938 Y21.720
G01 X23.955 Y21.741
G01 X23.972 Y21.761
G01 X23.989 Y21.781
G01 X24.007 Y21.801
G01 X24.023 Y21.820
G01 X24.042 Y21.840
G01 X24.059 Y21.859
G01 X24.077 Y21.878
G01 X24.095 Y21.897
G01 X24.113 Y21.916
G01 X24.131 Y21.935
G01 X24.150 Y21.953
G01 X24.169 Y21.972
G01 X24.186 Y21.990
G01 X24.206 Y22.008
G01 X24.225 Y22.026
G01 X24.243 Y22.043
G01 X24.263 Y22.061
G01 X24.282 Y22.078
G01 X24.300 Y22.095
G01 X24.320 Y22.112
G01 X24.341 Y22.129
G01 X24.358 Y22.144
G01 X24.379 Y22.161
G01 X24.400 Y22.177
G01 X24.417 Y22.192
G01 X24.438 Y22.208
G01 X24.459 Y22.224
G01 X24.476 Y22.237
G01 X24.498 Y22.252
G01 X24.519 Y22.268
G01 X24.536 Y22.280
G01 X24.557 Y22.294
G01 X24.579 Y22.309
G01 X24.595 Y22.320
G01 X24.617 Y22.334
G01 X24.639 Y22.348
G01 X24.654 Y22.358
G01 X24.677 Y22.371
G01 X24.699 Y22.384
G01 X24.714 Y22.393
G01 X24.736 Y22.405
G01 X24.758 Y22.417
G01 X24.772 Y22.425
G01 X24.795 Y22.436
G01 X24.817 Y22.448
G01 X24.831 Y22.455
G01 X24.853 Y22.465
G01 X24.875 Y22.475
G01 X24.888 Y22.482
G01 X24.910 Y22.491
G01 X24.932 Y22.501
G01 X24.945 Y22.507
G01 X24.966 Y22.515
G01 X24.989 Y22.524
G01 X25.000 Y22.529
G01 X25.021 Y22.537
G01 X25.043 Y22.545
G01 X25.054 Y22.549
G01 X25.075 Y22.556
G01 X25.096 Y22.564
G01 X25.105 Y22.567
G01 X25.126 Y22.574
G01 X25.147 Y22.581
G01 X25.154 Y22.584
G01 X25.174 Y22.590
G01 X25.196 Y22.596
G01 X25.199 Y22.598
G01 X25.219 Y22.603
G01 X25.240 Y22.609
G01 X25.241 Y22.610
G01 X25.261 Y22.614
G01 X25.278 Y22.619
G01 X25.297 Y22.623
G01 X25.309 Y22.626
G01 X25.327 Y22.629
G01 X25.333 Y22.630
G01 X25.350 Y22.632
G01 X25.352 Y22.632
G01 X25.363 Y22.632
G01 X25.371 Y22.629
G01 X25.370 Y22.631
G01 X25.368 Y22.637
G01 X25.367 Y22.649
G01 X25.368 Y22.666
G01 X25.368 Y22.668
G01 X25.371 Y22.686
G01 X25.372 Y22.694
G01 X25.376 Y22.713
G01 X25.378 Y22.725
G01 X25.383 Y22.745
G01 X25.387 Y22.763
G01 X25.392 Y22.783
G01 X25.397 Y22.803
G01 X25.397 Y22.805
G01 X25.404 Y22.826
G01 X25.409 Y22.846
G01 X25.410 Y22.852
G01 X25.417 Y22.873
G01 X25.423 Y22.893
G01 X25.425 Y22.902
G01 X25.433 Y22.923
G01 X25.439 Y22.944
G01 X25.442 Y22.955
G01 X25.450 Y22.976
G01 X25.457 Y22.997
G01 X25.461 Y23.010
G01 X25.469 Y23.031
G01 X25.477 Y23.052
G01 X25.482 Y23.067
G01 X25.491 Y23.088
G01 X25.499 Y23.110
G01 X25.505 Y23.125
G01 X25.514 Y23.147
G01 X25.523 Y23.168
G01 X25.530 Y23.184
G01 X25.541 Y23.206
G01 X25.550 Y23.228
G01 X25.558 Y23.245
G01 X25.569 Y23.266
G01 X25.580 Y23.288
G01 X25.588 Y23.305
G01 X25.600 Y23.327
G01 X25.612 Y23.348
G01 X25.621 Y23.367
G01 X25.634 Y23.388
G01 X25.646 Y23.409
G01 X25.657 Y23.428
G01 X25.670 Y23.449
G01 X25.683 Y23.470
G01 X25.695 Y23.489
G01 X25.709 Y23.510
G01 X25.723 Y23.530
G01 X25.736 Y23.551
G01 X25.751 Y23.571
G01 X25.765 Y23.591
G01 X25.779 Y23.611
G01 X25.779 Y23.612
G01 X25.794 Y23.631
G01 X25.809 Y23.651
G01 X25.824 Y23.671
G01 X25.825 Y23.672
G01 X25.841 Y23.692
G01 X25.856 Y23.711
G01 X25.871 Y23.730
G01 X25.873 Y23.732
G01 X25.889 Y23.751
G01 X25.905 Y23.770
G01 X25.920 Y23.788
G01 X25.923 Y23.792
G01 X25.939 Y23.810
G01 X25.955 Y23.828
G01 X25.971 Y23.846
G01 X25.974 Y23.850
G01 X25.991 Y23.867
G01 X26.008 Y23.885
G01 X26.024 Y23.903
G01 X26.028 Y23.907
G01 X26.045 Y23.924
G01 X26.062 Y23.941
G01 X26.079 Y23.959
G01 X26.083 Y23.962
G01 X26.100 Y23.979
G01 X26.118 Y23.996
G01 X26.135 Y24.013
G01 X26.139 Y24.017
G01 X26.158 Y24.033
G01 X26.176 Y24.049
G01 X26.194 Y24.066
G01 X26.198 Y24.070
G01 X26.216 Y24.085
G01 X26.235 Y24.101
G01 X26.253 Y24.117
G01 X26.258 Y24.121
G01 X26.277 Y24.136
G01 X26.296 Y24.152
G01 X26.315 Y24.167
G01 X26.320 Y24.171
G01 X26.340 Y24.186
G01 X26.359 Y24.201
G01 X26.378 Y24.216
G01 X26.384 Y24.221
G01 X26.404 Y24.235
G01 X26.424 Y24.250
G01 X26.444 Y24.265
G01 X26.451 Y24.270
G01 X26.472 Y24.284
G01 X26.492 Y24.298
G01 X26.512 Y24.313
G01 X26.521 Y24.319
G01 X26.542 Y24.333
G01 X26.563 Y24.347
G01 X26.583 Y24.362
G01 X26.594 Y24.369
G01 X26.615 Y24.383
G01 X26.636 Y24.398
G01 X26.658 Y24.412
G01 X26.671 Y24.421
G01 X26.693 Y24.436
G01 X26.714 Y24.450
G01 X26.736 Y24.466
G01 X26.752 Y24.477
G01 X26.774 Y24.492
G01 X26.797 Y24.507
G01 X26.819 Y24.523
G01 X26.837 Y24.536
G01 X26.860 Y24.552
G01 X26.883 Y24.568
G01 X26.907 Y24.585
G01 X26.928 Y24.601
G01 X26.952 Y24.618
G01 X26.975 Y24.636
G01 X27.000 Y24.654
G01 X27.023 Y24.672
G01 X27.048 Y24.691
G01 X27.072 Y24.710
G01 X27.097 Y24.730
G01 X27.122 Y24.750
G01 X27.123 Y24.751
G01 X27.148 Y24.772
G01 X27.174 Y24.792
G01 X27.199 Y24.814
G01 X27.224 Y24.835
G01 X27.227 Y24.838
G01 X27.252 Y24.860
G01 X27.278 Y24.882
G01 X27.304 Y24.905
G01 X27.329 Y24.928
G01 X27.332 Y24.931
G01 X27.358 Y24.955
G01 X27.383 Y24.979
G01 X27.409 Y25.003
G01 X27.434 Y25.027
G01 X27.437 Y25.030
G01 X27.462 Y25.055
G01 X27.487 Y25.080
G01 X27.512 Y25.105
G01 X27.537 Y25.131
G01 X27.539 Y25.133
G01 X27.563 Y25.158
G01 X27.587 Y25.184
G01 X27.610 Y25.209
G01 X27.633 Y25.235
G01 X27.633 Y25.235
G01 X27.656 Y25.261
G01 X27.678 Y25.287
G01 X27.700 Y25.312
G01 X27.719 Y25.335
G01 X27.740 Y25.361
G01 X27.760 Y25.386
G01 X27.779 Y25.411
G01 X27.794 Y25.431
G01 X27.812 Y25.455
G01 X27.829 Y25.479
G01 X27.846 Y25.503
G01 X27.857 Y25.519
G01 X27.872 Y25.542
G01 X27.887 Y25.565
G01 X27.901 Y25.588
G01 X27.908 Y25.599
G01 X27.920 Y25.621
G01 X27.933 Y25.643
G01 X27.944 Y25.665
G01 X27.947 Y25.671
G01 X27.957 Y25.692
G01 X27.967 Y25.712
G01 X27.976 Y25.732
G01 X27.977 Y25.734
G01 X27.984 Y25.754
G01 X27.991 Y25.773
G01 X27.997 Y25.789
G01 X28.003 Y25.807
G01 X28.007 Y25.825
G01 X28.010 Y25.836
G01 X28.013 Y25.854
G01 X28.016 Y25.870
G01 X28.017 Y25.877
G01 X28.019 Y25.893
G01 X28.019 Y25.909
G01 X28.020 Y25.910
G01 X28.019 Y25.925
G01 X28.018 Y25.938
G01 X28.016 Y25.952
G01 X28.015 Y25.960
G01 X28.011 Y25.973
G01 X28.010 Y25.977
G01 X28.005 Y25.989
G01 X28.005 Y25.990
G01 X28.000 Y25.999
G01 X27.996 Y26.004
G01 X27.994 Y26.006
G01 X27.995 Y26.005
G01 X27.998 Y26.003
G01 X28.005 Y26.000
G01 X28.017 Y25.996
G01 X28.030 Y25.993
G01 X28.032 Y25.993
G01 X28.047 Y25.991
G01 X28.053 Y25.990
G01 X28.069 Y25.990
G01 X28.080 Y25.990
G01 X28.096 Y25.992
G01 X28.112 Y25.993
G01 X28.113 Y25.993
G01 X28.130 Y25.997
G01 X28.147 Y26.000
G01 X28.152 Y26.001
G01 X28.170 Y26.006
G01 X28.188 Y26.012
G01 X28.199 Y26.015
G01 X28.218 Y26.022
G01 X28.237 Y26.030
G01 X28.253 Y26.036
G01 X28.273 Y26.045
G01 X28.294 Y26.055
G01 X28.314 Y26.065
G01 X28.316 Y26.066
G01 X28.337 Y26.077
G01 X28.359 Y26.089
G01 X28.380 Y26.102
G01 X28.387 Y26.106
G01 X28.409 Y26.120
G01 X28.432 Y26.134
G01 X28.455 Y26.149
G01 X28.467 Y26.157
G01 X28.490 Y26.173
G01 X28.514 Y26.190
G01 X28.537 Y26.207
G01 X28.555 Y26.220
G01 X28.579 Y26.239
G01 X28.603 Y26.258
G01 X28.627 Y26.277
G01 X28.650 Y26.296
G01 X28.674 Y26.316
G01 X28.698 Y26.337
G01 X28.723 Y26.359
G01 X28.747 Y26.380
G01 X28.749 Y26.382
G01 X28.774 Y26.404
G01 X28.798 Y26.427
G01 X28.822 Y26.450
G01 X28.846 Y26.473
G01 X28.851 Y26.478
G01 X28.875 Y26.501
G01 X28.899 Y26.525
G01 X28.922 Y26.549
G01 X28.946 Y26.573
G01 X28.953 Y26.580
G01 X28.976 Y26.604
G01 X28.998 Y26.629
G01 X29.021 Y26.653
G01 X29.043 Y26.677
G01 X29.051 Y26.686
G01 X29.072 Y26.710
G01 X29.094 Y26.735
G01 X29.114 Y26.759
G01 X29.135 Y26.783
G01 X29.143 Y26.793
G01 X29.163 Y26.817
G01 X29.182 Y26.841
G01 X29.202 Y26.865
G01 X29.220 Y26.889
G01 X29.228 Y26.898
G01 X29.246 Y26.922
G01 X29.264 Y26.945
G01 X29.282 Y26.968
G01 X29.299 Y26.991
G01 X29.305 Y27.000
G01 X29.322 Y27.023
G01 X29.338 Y27.045
G01 X29.354 Y27.068
G01 X29.369 Y27.090
G01 X29.374 Y27.097
G01 X29.390 Y27.119
G01 X29.405 Y27.141
G01 X29.419 Y27.163
G01 X29.433 Y27.185
G01 X29.437 Y27.190
G01 X29.451 Y27.211
G01 X29.465 Y27.233
G01 X29.479 Y27.254
G01 X29.492 Y27.275
G01 X29.494 Y27.278
G01 X29.507 Y27.299
G01 X29.521 Y27.319
G01 X29.533 Y27.340
G01 X29.546 Y27.360
G01 X29.547 Y27.361
G01 X29.560 Y27.381
G01 X29.572 Y27.401
G01 X29.585 Y27.421
G01 X29.596 Y27.440
G01 X29.609 Y27.460
G01 X29.622 Y27.480
G01 X29.634 Y27.499
G01 X29.644 Y27.516
G01 X29.657 Y27.535
G01 X29.669 Y27.554
G01 X29.681 Y27.573
G01 X29.691 Y27.588
G01 X29.704 Y27.607
G01 X29.716 Y27.626
G01 X29.729 Y27.644
G01 X29.737 Y27.658
G01 X29.750 Y27.676
G01 X29.763 Y27.694
G01 X29.776 Y27.712
G01 X29.784 Y27.724
G01 X29.798 Y27.742
G01 X29.811 Y27.760
G01 X29.824 Y27.777
G01 X29.832 Y27.789
G01 X29.846 Y27.806
G01 X29.860 Y27.823
G01 X29.874 Y27.840
G01 X29.882 Y27.851
G01 X29.896 Y27.868
G01 X29.911 Y27.884
G01 X29.925 Y27.901
G01 X29.933 Y27.911
G01 X29.948 Y27.927
G01 X29.962 Y27.944
G01 X29.977 Y27.960
G01 X29.985 Y27.970
G01 X30.001 Y27.985
G01 X30.016 Y28.001
G01 X30.031 Y28.017
G01 X30.040 Y28.026
G01 X30.055 Y28.041
G01 X30.071 Y28.057
G01 X30.087 Y28.072
G01 X30.095 Y28.081
G01 X30.112 Y28.095
G01 X30.128 Y28.110
G01 X30.144 Y28.125
G01 X30.152 Y28.133
G01 X30.169 Y28.148
G01 X30.186 Y28.162
G01 X30.202 Y28.176
G01 X30.211 Y28.184
G01 X30.228 Y28.198
G01 X30.245 Y28.212
G01 X30.262 Y28.226
G01 X30.270 Y28.232
G01 X30.288 Y28.246
G01 X30.305 Y28.259
G01 X30.323 Y28.272
G01 X30.331 Y28.278
G01 X30.349 Y28.291
G01 X30.367 Y28.304
G01 X30.385 Y28.317
G01 X30.392 Y28.322
G01 X30.410 Y28.334
G01 X30.428 Y28.346
G01 X30.447 Y28.358
G01 X30.453 Y28.362
G01 X30.472 Y28.373
G01 X30.491 Y28.385
G01 X30.510 Y28.397
G01 X30.515 Y28.400
G01 X30.534 Y28.410
G01 X30.554 Y28.421
G01 X30.573 Y28.432
G01 X30.577 Y28.435
G01 X30.597 Y28.444
G01 X30.616 Y28.454
G01 X30.636 Y28.465
G01 X30.640 Y28.467
G01 X30.659 Y28.475
G01 X30.679 Y28.485
G01 X30.699 Y28.494
G01 X30.702 Y28.496
G01 X30.721 Y28.504
G01 X30.741 Y28.512
G01 X30.761 Y28.521
G01 X30.764 Y28.522
G01 X30.783 Y28.529
G01 X30.803 Y28.536
G01 X30.823 Y28.544
G01 X30.825 Y28.545
G01 X30.844 Y28.551
G01 X30.864 Y28.558
G01 X30.884 Y28.566
G01 X30.885 Y28.566
G01 X30.904 Y28.572
G01 X30.924 Y28.578
G01 X30.944 Y28.585
G01 X30.944 Y28.585
G01 X30.963 Y28.590
G01 X30.983 Y28.595
G01 X31.002 Y28.601
G01 X31.020 Y28.606
G01 X31.040 Y28.611
G01 X31.057 Y28.616
G01 X31.075 Y28.620
G01 X31.094 Y28.624
G01 X31.109 Y28.628
G01 X31.128 Y28.632
G01 X31.146 Y28.636
G01 X31.158 Y28.639
G01 X31.176 Y28.642
G01 X31.195 Y28.646
G01 X31.203 Y28.647
G01 X31.221 Y28.650
G01 X31.239 Y28.653
G01 X31.243 Y28.654
G01 X31.260 Y28.656
G01 X31.276 Y28.658
G01 X31.293 Y28.660
G01 X31.303 Y28.661
G01 X31.318 Y28.660
G01 X31.323 Y28.660
G01 X31.336 Y28.659
G01 X31.345 Y28.655
G01 X31.343 Y28.657
G01 X31.341 Y28.664
G01 X31.338 Y28.678
G01 X31.338 Y28.678
G01 X31.338 Y28.693
G01 X31.338 Y28.698
G01 X31.339 Y28.715
G01 X31.339 Y28.726
G01 X31.341 Y28.743
G01 X31.343 Y28.760
G01 X31.343 Y28.760
G01 X31.346 Y28.778
G01 X31.348 Y28.796
G01 X31.349 Y28.801
G01 X31.352 Y28.819
G01 X31.355 Y28.837
G01 X31.356 Y28.847
G01 X31.360 Y28.865
G01 X31.364 Y28.883
G01 X31.366 Y28.897
G01 X31.370 Y28.915
G01 X31.374 Y28.934
G01 X31.377 Y28.950
G01 X31.382 Y28.969
G01 X31.386 Y28.988
G01 X31.390 Y29.006
G01 X31.390 Y29.007
G01 X31.395 Y29.026
G01 X31.400 Y29.045
G01 X31.404 Y29.063
G01 X31.405 Y29.066
G01 X31.411 Y29.085
G01 X31.416 Y29.104
G01 X31.421 Y29.123
G01 X31.422 Y29.127
G01 X31.428 Y29.146
G01 X31.434 Y29.165
G01 X31.440 Y29.184
G01 X31.441 Y29.189
G01 X31.448 Y29.208
G01 X31.455 Y29.227
G01 X31.461 Y29.246
G01 X31.463 Y29.252
G01 X31.470 Y29.271
G01 X31.478 Y29.290
G01 X31.484 Y29.309
G01 X31.487 Y29.316
G01 X31.495 Y29.335
G01 X31.503 Y29.354
G01 X31.511 Y29.373
G01 X31.514 Y29.380
G01 X31.523 Y29.399
G01 X31.532 Y29.418
G01 X31.540 Y29.437
G01 X31.543 Y29.444
G01 X31.553 Y29.463
G01 X31.563 Y29.482
G01 X31.572 Y29.500
G01 X31.576 Y29.509
G01 X31.587 Y29.527
G01 X31.597 Y29.545
G01 X31.607 Y29.564
G01 X31.612 Y29.573
G01 X31.623 Y29.591
G01 X31.634 Y29.609
G01 X31.644 Y29.626
G01 X31.650 Y29.637
G01 X31.662 Y29.654
G01 X31.673 Y29.671
G01 X31.684 Y29.689
G01 X31.691 Y29.700
G01 X31.704 Y29.717
G01 X31.716 Y29.734
G01 X31.727 Y29.751
G01 X31.735 Y29.762
G01 X31.748 Y29.779
G01 X31.760 Y29.795
G01 X31.773 Y29.811
G01 X31.782 Y29.824
G01 X31.795 Y29.839
G01 X31.808 Y29.855
G01 X31.821 Y29.871
G01 X31.830 Y29.884
G01 X31.844 Y29.899
G01 X31.857 Y29.915
G01 X31.871 Y29.930
G01 X31.881 Y29.943
G01 X31.895 Y29.957
G01 X31.909 Y29.972
G01 X31.923 Y29.987
G01 X31.934 Y30.000
G01 X31.949 Y30.014
G01 X31.963 Y30.029
G01 X31.978 Y30.043
G01 X31.989 Y30.056
G01 X32.005 Y30.069
G01 X32.019 Y30.083
G01 X32.034 Y30.097
G01 X32.047 Y30.109
G01 X32.062 Y30.123
G01 X32.078 Y30.136
G01 X32.093 Y30.150
G01 X32.106 Y30.161
G01 X32.122 Y30.174
G01 X32.138 Y30.187
G01 X32.154 Y30.200
G01 X32.167 Y30.212
G01 X32.184 Y30.224
G01 X32.200 Y30.236
G01 X32.216 Y30.249
G01 X32.231 Y30.260
G01 X32.248 Y30.272
G01 X32.265 Y30.284
G01 X32.282 Y30.296
G01 X32.297 Y30.308
G01 X32.315 Y30.319
G01 X32.332 Y30.331
G01 X32.349 Y30.343
G01 X32.367 Y30.355
G01 X32.384 Y30.366
G01 X32.402 Y30.377
G01 X32.420 Y30.388
G01 X32.438 Y30.400
G01 X32.439 Y30.401
G01 X32.457 Y30.412
G01 X32.475 Y30.423
G01 X32.493 Y30.435
G01 X32.512 Y30.446
G01 X32.515 Y30.449
G01 X32.533 Y30.459
G01 X32.552 Y30.471
G01 X32.571 Y30.482
G01 X32.589 Y30.494
G01 X32.595 Y30.498
G01 X32.614 Y30.509
G01 X32.633 Y30.520
G01 X32.652 Y30.532
G01 X32.671 Y30.545
G01 X32.679 Y30.550
G01 X32.698 Y30.561
G01 X32.718 Y30.574
G01 X32.737 Y30.586
G01 X32.757 Y30.599
G01 X32.768 Y30.606
G01 X32.787 Y30.619
G01 X32.807 Y30.632
G01 X32.828 Y30.645
G01 X32.848 Y30.659
G01 X32.861 Y30.668
G01 X32.881 Y30.682
G01 X32.902 Y30.696
G01 X32.923 Y30.710
G01 X32.944 Y30.725
G01 X32.959 Y30.737
G01 X32.980 Y30.752
G01 X33.001 Y30.767
G01 X33.023 Y30.783
G01 X33.044 Y30.799
G01 X33.061 Y30.813
G01 X33.083 Y30.830
G01 X33.105 Y30.847
G01 X33.126 Y30.864
G01 X33.148 Y30.882
G01 X33.167 Y30.898
G01 X33.189 Y30.916
G01 X33.211 Y30.934
G01 X33.232 Y30.953
G01 X33.254 Y30.972
G01 X33.274 Y30.990
G01 X33.295 Y31.009
G01 X33.317 Y31.029
G01 X33.339 Y31.049
G01 X33.360 Y31.070
G01 X33.379 Y31.088
G01 X33.401 Y31.109
G01 X33.422 Y31.130
G01 X33.443 Y31.151
G01 X33.463 Y31.172
G01 X33.481 Y31.190
G01 X33.501 Y31.212
G01 X33.521 Y31.234
G01 X33.541 Y31.255
G01 X33.560 Y31.277
G01 X33.575 Y31.294
G01 X33.594 Y31.316
G01 X33.612 Y31.338
G01 X33.630 Y31.360
G01 X33.648 Y31.381
G01 X33.659 Y31.395
G01 X33.676 Y31.417
G01 X33.693 Y31.439
G01 X33.709 Y31.461
G01 X33.724 Y31.482
G01 X33.732 Y31.493
G01 X33.747 Y31.514
G01 X33.761 Y31.535
G01 X33.775 Y31.556
G01 X33.788 Y31.577
G01 X33.792 Y31.584
G01 X33.804 Y31.604
G01 X33.816 Y31.624
G01 X33.828 Y31.645
G01 X33.839 Y31.665
G01 X33.840 Y31.667
G01 X33.850 Y31.686
G01 X33.859 Y31.706
G01 X33.868 Y31.725
G01 X33.876 Y31.742
G01 X33.884 Y31.761
G01 X33.891 Y31.779
G01 X33.897 Y31.798
G01 X33.902 Y31.809
G01 X33.907 Y31.827
G01 X33.912 Y31.844
G01 X33.917 Y31.862
G01 X33.918 Y31.868
G01 X33.921 Y31.885
G01 X33.924 Y31.901
G01 X33.927 Y31.918
G01 X33.927 Y31.919
G01 X33.929 Y31.935
G01 X33.930 Y31.951
G01 X33.930 Y31.963
G01 X33.930 Y31.979
G01 X33.929 Y31.994
G01 X33.929 Y32.001
G01 X33.927 Y32.015
G01 X33.925 Y32.029
G01 X33.924 Y32.032
G01 X33.921 Y32.046
G01 X33.918 Y32.057
G01 X33.913 Y32.070
G01 X33.910 Y32.077
G01 X33.904 Y32.089
G01 X33.903 Y32.092
G01 X33.896 Y32.102
G01 X33.891 Y32.108
G01 X33.889 Y32.111
G01 X33.890 Y32.110
G01 X33.894 Y32.107
G01 X33.903 Y32.102
G01 X33.916 Y32.097
G01 X33.916 Y32.096
G01 X33.930 Y32.092
G01 X33.935 Y32.090
G01 X33.949 Y32.087
G01 X33.959 Y32.085
G01 X33.973 Y32.083
G01 X33.988 Y32.081
G01 X33.989 Y32.081
G01 X34.004 Y32.081
G01 X34.019 Y32.081
G01 X34.025 Y32.081
G01 X34.041 Y32.082
G01 X34.057 Y32.084
G01 X34.069 Y32.085
G01 X34.085 Y32.088
G01 X34.102 Y32.091
G01 X34.119 Y32.094
G01 X34.119 Y32.095
G01 X34.136 Y32.099
G01 X34.154 Y32.104
G01 X34.171 Y32.110
G01 X34.178 Y32.112
G01 X34.196 Y32.118
G01 X34.214 Y32.125
G01 X34.232 Y32.133
G01 X34.244 Y32.138
G01 X34.263 Y32.147
G01 X34.282 Y32.156
G01 X34.301 Y32.165
G01 X34.319 Y32.174
G01 X34.339 Y32.185
G01 X34.358 Y32.196
G01 X34.378 Y32.208
G01 X34.398 Y32.220
G01 X34.402 Y32.222
G01 X34.422 Y32.235
G01 X34.443 Y32.249
G01 X34.463 Y32.263
G01 X34.484 Y32.277
G01 X34.492 Y32.283
G01 X34.513 Y32.298
G01 X34.534 Y32.314
G01 X34.555 Y32.329
G01 X34.576 Y32.346
G01 X34.589 Y32.356
G01 X34.610 Y32.373
G01 X34.631 Y32.391
G01 X34.652 Y32.408
G01 X34.673 Y32.426
G01 X34.690 Y32.441
G01 X34.711 Y32.460
G01 X34.732 Y32.479
G01 X34.753 Y32.498
G01 X34.773 Y32.517
G01 X34.793 Y32.536
G01 X34.813 Y32.556
G01 X34.834 Y32.576
G01 X34.854 Y32.596
G01 X34.874 Y32.617
G01 X34.893 Y32.637
G01 X34.894 Y32.638
G01 X34.914 Y32.659
G01 X34.933 Y32.680
G01 X34.952 Y32.700
G01 X34.971 Y32.721
G01 X34.989 Y32.742
G01 X34.992 Y32.745
G01 X35.010 Y32.766
G01 X35.028 Y32.787
G01 X35.045 Y32.808
G01 X35.063 Y32.829
G01 X35.080 Y32.850
G01 X35.082 Y32.853
G01 X35.099 Y32.874
G01 X35.116 Y32.895
G01 X35.132 Y32.916
G01 X35.147 Y32.936
G01 X35.163 Y32.957
G01 X35.165 Y32.960
G01 X35.181 Y32.981
G01 X35.195 Y33.001
G01 X35.210 Y33.022
G01 X35.224 Y33.042
G01 X35.238 Y33.062
G01 X35.240 Y33.065
G01 X35.254 Y33.085
G01 X35.267 Y33.104
G01 X35.280 Y33.124
G01 X35.293 Y33.144
G01 X35.305 Y33.164
G01 X35.306 Y33.165
G01 X35.319 Y33.184
G01 X35.331 Y33.204
G01 X35.343 Y33.223
G01 X35.355 Y33.242
G01 X35.366 Y33.261
G01 X35.378 Y33.280
G01 X35.389 Y33.298
G01 X35.400 Y33.317
G01 X35.411 Y33.336
G01 X35.420 Y33.352
G01 X35.431 Y33.370
G01 X35.441 Y33.389
G01 X35.452 Y33.407
G01 X35.462 Y33.425
G01 X35.469 Y33.439
G01 X35.480 Y33.456
G01 X35.490 Y33.474
G01 X35.500 Y33.492
G01 X35.509 Y33.510
G01 X35.515 Y33.521
G01 X35.526 Y33.539
G01 X35.536 Y33.556
G01 X35.546 Y33.573
G01 X35.555 Y33.590
G01 X35.560 Y33.600
G01 X35.570 Y33.617
G01 X35.581 Y33.634
G01 X35.590 Y33.651
G01 X35.600 Y33.667
G01 X35.604 Y33.675
G01 X35.614 Y33.691
G01 X35.625 Y33.708
G01 X35.635 Y33.724
G01 X35.645 Y33.741
G01 X35.648 Y33.747
G01 X35.659 Y33.763
G01 X35.669 Y33.779
G01 X35.680 Y33.795
G01 X35.690 Y33.811
G01 X35.693 Y33.816
G01 X35.704 Y33.831
G01 X35.715 Y33.847
G01 X35.726 Y33.862
G01 X35.736 Y33.878
G01 X35.739 Y33.882
G01 X35.751 Y33.897
G01 X35.762 Y33.912
G01 X35.774 Y33.927
G01 X35.785 Y33.942
G01 X35.787 Y33.946
G01 X35.799 Y33.960
G01 X35.811 Y33.975
G01 X35.823 Y33.989
G01 X35.835 Y34.004
G01 X35.837 Y34.007
G01 X35.850 Y34.021
G01 X35.862 Y34.035
G01 X35.874 Y34.049
G01 X35.887 Y34.063
G01 X35.889 Y34.066
G01 X35.902 Y34.079
G01 X35.915 Y34.093
G01 X35.928 Y34.106
G01 X35.941 Y34.120
G01 X35.943 Y34.123
G01 X35.957 Y34.135
G01 X35.970 Y34.148
G01 X35.983 Y34.161
G01 X35.997 Y34.175
G01 X35.999 Y34.177
G01 X36.013 Y34.189
G01 X36.027 Y34.202
G01 X36.041 Y34.214
G01 X36.055 Y34.227
G01 X36.057 Y34.229
G01 X36.071 Y34.241
G01 X36.086 Y34.253
G01 X36.100 Y34.265
G01 X36.115 Y34.277
G01 X36.116 Y34.279
G01 X36.131 Y34.290
G01 X36.146 Y34.301
G01 X36.161 Y34.313
G01 X36.176 Y34.325
G01 X36.177 Y34.325
G01 X36.193 Y34.336
G01 X36.208 Y34.347
G01 X36.224 Y34.358
G01 X36.239 Y34.369
G01 X36.239 Y34.370
G01 X36.255 Y34.380
G01 X36.271 Y34.390
G01 X36.287 Y34.400
G01 X36.303 Y34.411
G01 X36.319 Y34.420
G01 X36.336 Y34.430
G01 X36.352 Y34.439
G01 X36.367 Y34.449
G01 X36.384 Y34.457
G01 X36.401 Y34.466
G01 X36.418 Y34.475
G01 X36.432 Y34.483
G01 X36.449 Y34.491
G01 X36.466 Y34.500
G01 X36.484 Y34.508
G01 X36.497 Y34.515
G01 X36.515 Y34.522
G01 X36.532 Y34.530
G01 X36.550 Y34.537
G01 X36.563 Y34.543
G01 X36.581 Y34.550
G01 X36.598 Y34.556
G01 X36.616 Y34.563
G01 X36.629 Y34.569
G01 X36.647 Y34.574
G01 X36.664 Y34.580
G01 X36.682 Y34.586
G01 X36.695 Y34.591
G01 X36.712 Y34.596
G01 X36.730 Y34.601
G01 X36.748 Y34.607
G01 X36.760 Y34.610
G01 X36.777 Y34.614
G01 X36.795 Y34.619
G01 X36.813 Y34.624
G01 X36.824 Y34.627
G01 X36.842 Y34.631
G01 X36.859 Y34.635
G01 X36.877 Y34.639
G01 X36.887 Y34.642
G01 X36.905 Y34.645
G01 X36.922 Y34.648
G01 X36.940 Y34.652
G01 X36.949 Y34.654
G01 X36.966 Y34.657
G01 X36.983 Y34.660
G01 X37.001 Y34.663
G01 X37.008 Y34.664
G01 X37.025 Y34.667
G01 X37.042 Y34.669
G01 X37.060 Y34.672
G01 X37.064 Y34.673
G01 X37.081 Y34.675
G01 X37.098 Y34.677
G01 X37.116 Y34.680
G01 X37.117 Y34.680
G01 X37.133 Y34.682
G01 X37.150 Y34.684
G01 X37.165 Y34.686
G01 X37.181 Y34.687
G01 X37.198 Y34.688
G01 X37.207 Y34.689
G01 X37.223 Y34.690
G01 X37.239 Y34.691
G01 X37.244 Y34.691
G01 X37.259 Y34.691
G01 X37.273 Y34.691
G01 X37.287 Y34.690
G01 X37.295 Y34.689
G01 X37.307 Y34.686
G01 X37.309 Y34.686
G01 X37.318 Y34.682
G01 X37.317 Y34.684
G01 X37.313 Y34.692
G01 X37.310 Y34.704
G01 X37.310 Y34.706
G01 X37.308 Y34.720
G01 X37.307 Y34.729
G01 X37.307 Y34.744
G01 X37.307 Y34.759
G01 X37.307 Y34.759
G01 X37.307 Y34.775
G01 X37.308 Y34.790
G01 X37.308 Y34.796
G01 X37.309 Y34.812
G01 X37.310 Y34.828
G01 X37.310 Y34.839
G01 X37.312 Y34.856
G01 X37.314 Y34.872
G01 X37.315 Y34.888
G01 X37.317 Y34.905
G01 X37.319 Y34.922
G01 X37.320 Y34.938
G01 X37.321 Y34.942
G01 X37.323 Y34.959
G01 X37.326 Y34.976
G01 X37.328 Y34.993
G01 X37.328 Y34.999
G01 X37.331 Y35.017
G01 X37.334 Y35.034
G01 X37.336 Y35.051
G01 X37.337 Y35.060
G01 X37.341 Y35.078
G01 X37.344 Y35.095
G01 X37.346 Y35.112
G01 X37.348 Y35.123
G01 X37.352 Y35.141
G01 X37.355 Y35.158
G01 X37.359 Y35.175
G01 X37.361 Y35.188
G01 X37.365 Y35.206
G01 X37.369 Y35.223
G01 X37.373 Y35.240
G01 X37.376 Y35.254
G01 X37.381 Y35.272
G01 X37.385 Y35.290
G01 X37.390 Y35.307
G01 X37.393 Y35.321
G01 X37.399 Y35.339
G01 X37.404 Y35.357
G01 X37.409 Y35.374
G01 X37.413 Y35.389
G01 X37.419 Y35.407
G01 X37.426 Y35.424
G01 X37.431 Y35.442
G01 X37.436 Y35.457
G01 X37.443 Y35.475
G01 X37.450 Y35.492
G01 X37.456 Y35.509
G01 X37.462 Y35.526
G01 X37.470 Y35.543
G01 X37.477 Y35.559
G01 X37.484 Y35.576
G01 X37.491 Y35.593
G01 X37.491 Y35.593
G01 X37.500 Y35.610
G01 X37.508 Y35.626
G01 X37.516 Y35.643
G01 X37.523 Y35.659
G01 X37.524 Y35.661
G01 X37.533 Y35.677
G01 X37.542 Y35.693
G01 X37.550 Y35.709
G01 X37.558 Y35.725
G01 X37.560 Y35.727
G01 X37.569 Y35.743
G01 X37.578 Y35.758
G01 X37.588 Y35.774
G01 X37.596 Y35.789
G01 X37.598 Y35.793
G01 X37.608 Y35.808
G01 X37.618 Y35.823
G01 X37.628 Y35.838
G01 X37.638 Y35.853
G01 X37.640 Y35.857
G01 X37.651 Y35.872
G01 X37.661 Y35.886
G01 X37.671 Y35.901
G01 X37.681 Y35.915
G01 X37.685 Y35.920
G01 X37.696 Y35.934
G01 X37.707 Y35.948
G01 X37.718 Y35.962
G01 X37.728 Y35.976
G01 X37.732 Y35.982
G01 X37.744 Y35.995
G01 X37.755 Y36.009
G01 X37.767 Y36.022
G01 X37.778 Y36.036
G01 X37.782 Y36.042
G01 X37.794 Y36.054
G01 X37.806 Y36.067
G01 X37.818 Y36.080
G01 X37.830 Y36.093
G01 X37.835 Y36.099
G01 X37.848 Y36.111
G01 X37.860 Y36.124
G01 X37.872 Y36.136
G01 X37.885 Y36.149
G01 X37.890 Y36.155
G01 X37.903 Y36.166
G01 X37.916 Y36.178
G01 X37.929 Y36.190
G01 X37.942 Y36.202
G01 X37.948 Y36.208
G01 X37.962 Y36.219
G01 X37.975 Y36.231
G01 X37.989 Y36.242
G01 X38.002 Y36.254
G01 X38.008 Y36.259
G01 X38.022 Y36.270
G01 X38.036 Y36.280
G01 X38.050 Y36.291
G01 X38.064 Y36.302
G01 X38.071 Y36.308
G01 X38.086 Y36.318
G01 X38.100 Y36.328
G01 X38.115 Y36.338
G01 X38.129 Y36.349
G01 X38.137 Y36.355
G01 X38.152 Y36.364
G01 X38.167 Y36.374
G01 X38.182 Y36.384
G01 X38.197 Y36.394
G01 X38.206 Y36.400
G01 X38.221 Y36.409
G01 X38.237 Y36.418
G01 X38.252 Y36.428
G01 X38.268 Y36.437
G01 X38.277 Y36.444
G01 X38.293 Y36.452
G01 X38.309 Y36.461
G01 X38.325 Y36.471
G01 X38.341 Y36.480
G01 X38.353 Y36.487
G01 X38.369 Y36.496
G01 X38.385 Y36.505
G01 X38.402 Y36.514
G01 X38.418 Y36.523
G01 X38.432 Y36.531
G01 X38.449 Y36.540
G01 X38.465 Y36.549
G01 X38.482 Y36.558
G01 X38.499 Y36.568
G01 X38.515 Y36.577
G01 X38.532 Y36.586
G01 X38.549 Y36.595
G01 X38.567 Y36.605
G01 X38.584 Y36.614
G01 X38.601 Y36.624
G01 X38.603 Y36.626
G01 X38.620 Y36.635
G01 X38.638 Y36.645
G01 X38.655 Y36.655
G01 X38.673 Y36.665
G01 X38.691 Y36.676
G01 X38.695 Y36.678
G01 X38.713 Y36.689
G01 X38.731 Y36.699
G01 X38.749 Y36.710
G01 X38.767 Y36.721
G01 X38.785 Y36.733
G01 X38.792 Y36.737
G01 X38.810 Y36.748
G01 X38.828 Y36.760
G01 X38.847 Y36.772
G01 X38.865 Y36.784
G01 X38.884 Y36.796
G01 X38.893 Y36.803
G01 X38.912 Y36.815
G01 X38.930 Y36.828
G01 X38.949 Y36.841
G01 X38.968 Y36.855
G01 X38.987 Y36.868
G01 X38.998 Y36.877
G01 X39.017 Y36.890
G01 X39.036 Y36.905
G01 X39.055 Y36.919
G01 X39.074 Y36.934
G01 X39.093 Y36.949
G01 X39.105 Y36.959
G01 X39.125 Y36.974
G01 X39.144 Y36.990
G01 X39.163 Y37.006
G01 X39.182 Y37.022
G01 X39.201 Y37.039
G01 X39.214 Y37.050
G01 X39.233 Y37.066
G01 X39.252 Y37.083
G01 X39.271 Y37.101
G01 X39.289 Y37.118
G01 X39.308 Y37.136
G01 X39.320 Y37.147
G01 X39.339 Y37.165
G01 X39.357 Y37.183
G01 X39.375 Y37.202
G01 X39.393 Y37.220
G01 X39.411 Y37.238
G01 X39.421 Y37.250
G01 X39.439 Y37.268
G01 X39.456 Y37.287
G01 X39.473 Y37.306
G01 X39.490 Y37.325
G01 X39.507 Y37.344
G01 X39.515 Y37.354
G01 X39.531 Y37.373
G01 X39.547 Y37.392
G01 X39.562 Y37.411
G01 X39.577 Y37.431
G01 X39.592 Y37.450
G01 X39.598 Y37.457
G01 X39.612 Y37.476
G01 X39.626 Y37.495
G01 X39.639 Y37.515
G01 X39.653 Y37.534
G01 X39.666 Y37.553
G01 X39.668 Y37.557
G01 X39.680 Y37.575
G01 X39.692 Y37.594
G01 X39.704 Y37.613
G01 X39.715 Y37.632
G01 X39.725 Y37.650
G01 X39.735 Y37.669
G01 X39.745 Y37.687
G01 X39.754 Y37.705
G01 X39.763 Y37.723
G01 X39.770 Y37.737
G01 X39.777 Y37.755
G01 X39.785 Y37.773
G01 X39.792 Y37.790
G01 X39.799 Y37.808
G01 X39.802 Y37.816
G01 X39.807 Y37.833
G01 X39.813 Y37.850
G01 X39.818 Y37.867
G01 X39.822 Y37.884
G01 X39.823 Y37.887
G01 X39.827 Y37.904
G01 X39.830 Y37.920
G01 X39.833 Y37.936
G01 X39.835 Y37.951
G01 X39.837 Y37.967
G01 X39.838 Y37.982
G01 X39.840 Y37.998
G01 X39.840 Y38.007
G01 X39.840 Y38.022
G01 X39.839 Y38.037
G01 X39.839 Y38.052
G01 X39.839 Y38.055
G01 X39.837 Y38.070
G01 X39.835 Y38.085
G01 X39.833 Y38.097
G01 X39.829 Y38.111
G01 X39.826 Y38.125
G01 X39.824 Y38.132
G01 X39.819 Y38.146
G01 X39.814 Y38.160
G01 X39.813 Y38.162
G01 X39.807 Y38.175
G01 X39.802 Y38.185
G01 X39.795 Y38.198
G01 X39.792 Y38.203
G01 X39.784 Y38.215
G01 X39.783 Y38.215
G01 X39.777 Y38.223
G01 X39.774 Y38.226
G01 X39.775 Y38.225
G01 X39.781 Y38.220
G01 X39.792 Y38.213
G01 X39.805 Y38.206
G01 X39.808 Y38.205
G01 X39.821 Y38.199
G01 X39.830 Y38.195
G01 X39.844 Y38.191
G01 X39.857 Y38.186
G01 X39.858 Y38.186
G01 X39.872 Y38.183
G01 X39.886 Y38.179
G01 X39.892 Y38.178
G01 X39.907 Y38.176
G01 X39.921 Y38.175
G01 X39.933 Y38.173
G01 X39.948 Y38.173
G01 X39.963 Y38.173
G01 X39.978 Y38.173
G01 X39.981 Y38.173
G01 X39.996 Y38.174
G01 X40.012 Y38.175
G01 X40.028 Y38.177
G01 X40.036 Y38.178
G01 X40.052 Y38.181
G01 X40.068 Y38.184
G01 X40.084 Y38.187
G01 X40.099 Y38.191
G01 X40.115 Y38.195
G01 X40.132 Y38.200
G01 X40.149 Y38.206
G01 X40.166 Y38.211
G01 X40.170 Y38.213
G01 X40.187 Y38.219
G01 X40.204 Y38.226
G01 X40.221 Y38.233
G01 X40.239 Y38.241
G01 X40.248 Y38.245
G01 X40.266 Y38.254
G01 X40.284 Y38.263
G01 X40.302 Y38.272
G01 X40.320 Y38.281
G01 X40.335 Y38.290
G01 X40.353 Y38.300
G01 X40.371 Y38.311
G01 X40.389 Y38.323
G01 X40.408 Y38.334
G01 X40.426 Y38.346
G01 X40.428 Y38.347
G01 X40.447 Y38.360
G01 X40.465 Y38.373
G01 X40.484 Y38.386
G01 X40.502 Y38.400
G01 X40.521 Y38.413
G01 X40.527 Y38.418
G01 X40.546 Y38.433
G01 X40.564 Y38.447
G01 X40.583 Y38.462
G01 X40.601 Y38.478
G01 X40.620 Y38.493
G01 X40.630 Y38.502
G01 X40.648 Y38.518
G01 X40.666 Y38.534
G01 X40.685 Y38.550
G01 X40.703 Y38.567
G01 X40.721 Y38.584
G01 X40.733 Y38.596
G01 X40.751 Y38.613
G01 X40.769 Y38.630
G01 X40.786 Y38.648
G01 X40.804 Y38.665
G01 X40.821 Y38.683
G01 X40.835 Y38.698
G01 X40.852 Y38.716
G01 X40.868 Y38.734
G01 X40.885 Y38.752
G01 X40.901 Y38.771
G01 X40.917 Y38.789
G01 X40.931 Y38.806
G01 X40.947 Y38.824
G01 X40.962 Y38.842
G01 X40.977 Y38.861
G01 X40.992 Y38.879
G01 X41.007 Y38.898
G01 X41.020 Y38.915
G01 X41.035 Y38.934
G01 X41.049 Y38.952
G01 X41.062 Y38.971
G01 X41.076 Y38.989
G01 X41.089 Y39.007
G01 X41.101 Y39.025
G01 X41.114 Y39.043
G01 X41.127 Y39.061
G01 X41.139 Y39.079
G01 X41.151 Y39.097
G01 X41.163 Y39.115
G01 X41.173 Y39.132
G01 X41.184 Y39.149
G01 X41.196 Y39.167
G01 X41.207 Y39.185
G01 X41.217 Y39.203
G01 X41.228 Y39.221
G01 X41.236 Y39.235
G01 X41.247 Y39.253
G01 X41.257 Y39.270
G01 X41.267 Y39.287
G01 X41.276 Y39.305
G01 X41.286 Y39.322
G01 X41.292 Y39.334
G01 X41.302 Y39.351
G01 X41.311 Y39.368
G01 X41.320 Y39.385
G01 X41.329 Y39.402
G01 X41.337 Y39.419
G01 X41.342 Y39.429
G01 X41.351 Y39.446
G01 X41.360 Y39.462
G01 X41.368 Y39.479
G01 X41.377 Y39.496
G01 X41.384 Y39.512
G01 X41.388 Y39.520
G01 X41.397 Y39.536
G01 X41.405 Y39.552
G01 X41.413 Y39.568
G01 X41.421 Y39.584
G01 X41.428 Y39.601
G01 X41.431 Y39.606
G01 X41.439 Y39.622
G01 X41.447 Y39.638
G01 X41.455 Y39.653
G01 X41.463 Y39.669
G01 X41.470 Y39.685
G01 X41.472 Y39.688
G01 X41.480 Y39.704
G01 X41.488 Y39.719
G01 X41.496 Y39.734
G01 X41.504 Y39.750
G01 X41.511 Y39.765
G01 X41.512 Y39.767
G01 X41.521 Y39.782
G01 X41.529 Y39.797
G01 X41.537 Y39.812
G01 X41.545 Y39.827
G01 X41.553 Y39.842
G01 X41.553 Y39.842
G01 X41.562 Y39.856
G01 X41.571 Y39.871
G01 X41.579 Y39.885
G01 X41.588 Y39.900
G01 X41.595 Y39.913
G01 X41.605 Y39.927
G01 X41.614 Y39.941
G01 X41.623 Y39.955
G01 X41.632 Y39.969
G01 X41.639 Y39.982
G01 X41.649 Y39.995
G01 X41.659 Y40.009
G01 X41.668 Y40.022
G01 X41.678 Y40.036
G01 X41.685 Y40.047
G01 X41.696 Y40.060
G01 X41.706 Y40.073
G01 X41.716 Y40.086
G01 X41.726 Y40.099
G01 X41.734 Y40.110
G01 X41.745 Y40.122
G01 X41.756 Y40.134
G01 X41.766 Y40.147
G01 X41.777 Y40.159
G01 X41.785 Y40.170
G01 X41.797 Y40.181
G01 X41.808 Y40.193
G01 X41.819 Y40.205
G01 X41.830 Y40.217
G01 X41.839 Y40.227
G01 X41.851 Y40.238
G01 X41.863 Y40.249
G01 X41.875 Y40.260
G01 X41.886 Y40.272
G01 X41.895 Y40.281
G01 X41.908 Y40.291
G01 X41.920 Y40.302
G01 X41.932 Y40.313
G01 X41.945 Y40.323
G01 X41.954 Y40.332
G01 X41.967 Y40.342
G01 X41.980 Y40.352
G01 X41.993 Y40.362
G01 X42.005 Y40.372
G01 X42.015 Y40.380
G01 X42.028 Y40.389
G01 X42.042 Y40.399
G01 X42.055 Y40.409
G01 X42.068 Y40.418
G01 X42.078 Y40.425
G01 X42.092 Y40.434
G01 X42.106 Y40.443
G01 X42.120 Y40.452
G01 X42.133 Y40.461
G01 X42.142 Y40.467
G01 X42.157 Y40.475
G01 X42.171 Y40.483
G01 X42.186 Y40.492
G01 X42.200 Y40.500
G01 X42.208 Y40.505
G01 X42.223 Y40.513
G01 X42.238 Y40.520
G01 X42.253 Y40.528
G01 X42.268 Y40.536
G01 X42.275 Y40.540
G01 X42.291 Y40.547
G01 X42.306 Y40.554
G01 X42.322 Y40.561
G01 X42.337 Y40.568
G01 X42.344 Y40.572
G01 X42.360 Y40.578
G01 X42.375 Y40.584
G01 X42.391 Y40.590
G01 X42.407 Y40.597
G01 X42.413 Y40.599
G01 X42.429 Y40.605
G01 X42.445 Y40.610
G01 X42.462 Y40.616
G01 X42.478 Y40.622
G01 X42.483 Y40.624
G01 X42.499 Y40.628
G01 X42.516 Y40.633
G01 X42.532 Y40.638
G01 X42.549 Y40.643
G01 X42.553 Y40.645
G01 X42.569 Y40.648
G01 X42.586 Y40.653
G01 X42.603 Y40.657
G01 X42.619 Y40.662
G01 X42.623 Y40.663
G01 X42.639 Y40.666
G01 X42.656 Y40.669
G01 X42.673 Y40.673
G01 X42.690 Y40.677
G01 X42.693 Y40.678
G01 X42.709 Y40.680
G01 X42.726 Y40.683
G01 X42.742 Y40.686
G01 X42.759 Y40.689
G01 X42.762 Y40.690
G01 X42.778 Y40.692
G01 X42.794 Y40.694
G01 X42.811 Y40.697
G01 X42.828 Y40.700
G01 X42.829 Y40.700
G01 X42.845 Y40.701
G01 X42.862 Y40.703
G01 X42.878 Y40.705
G01 X42.895 Y40.708
G01 X42.911 Y40.709
G01 X42.927 Y40.711
G01 X42.944 Y40.712
G01 X42.958 Y40.714
G01 X42.974 Y40.715
G01 X42.990 Y40.716
G01 X43.006 Y40.718
G01 X43.018 Y40.719
G01 X43.034 Y40.719
G01 X43.050 Y40.720
G01 X43.066 Y40.722
G01 X43.075 Y40.722
G01 X43.090 Y40.722
G01 X43.106 Y40.723
G01 X43.122 Y40.724
G01 X43.126 Y40.724
G01 X43.141 Y40.724
G01 X43.157 Y40.724
G01 X43.172 Y40.725
G01 X43.187 Y40.724
G01 X43.202 Y40.724
G01 X43.211 Y40.724
G01 X43.225 Y40.723
G01 X43.239 Y40.722
G01 X43.242 Y40.721
G01 X43.256 Y40.719
G01 X43.266 Y40.718
G01 X43.278 Y40.714
G01 X43.281 Y40.713
G01 X43.292 Y40.708
G01 X43.292 Y40.708
G01 X43.290 Y40.711
G01 X43.286 Y40.719
G01 X43.282 Y40.731
G01 X43.281 Y40.735
G01 X43.279 Y40.748
G01 X43.277 Y40.759
G01 X43.276 Y40.774
G01 X43.274 Y40.788
G01 X43.274 Y40.791
G01 X43.273 Y40.806
G01 X43.273 Y40.821
G01 X43.272 Y40.831
G01 X43.272 Y40.847
G01 X43.272 Y40.862
G01 X43.272 Y40.877
G01 X43.272 Y40.878
G01 X43.272 Y40.894
G01 X43.273 Y40.909
G01 X43.273 Y40.924
G01 X43.273 Y40.930
G01 X43.274 Y40.946
G01 X43.274 Y40.962
G01 X43.275 Y40.978
G01 X43.275 Y40.988
G01 X43.276 Y41.004
G01 X43.277 Y41.020
G01 X43.278 Y41.036
G01 X43.278 Y41.049
G01 X43.280 Y41.066
G01 X43.281 Y41.082
G01 X43.282 Y41.098
G01 X43.283 Y41.113
G01 X43.283 Y41.114
G01 X43.285 Y41.131
G01 X43.287 Y41.147
G01 X43.288 Y41.163
G01 X43.289 Y41.179
G01 X43.289 Y41.182
G01 X43.292 Y41.198
G01 X43.294 Y41.215
G01 X43.296 Y41.231
G01 X43.297 Y41.247
G01 X43.297 Y41.251
G01 X43.300 Y41.268
G01 X43.303 Y41.284
G01 X43.305 Y41.301
G01 X43.307 Y41.317
G01 X43.308 Y41.322
G01 X43.311 Y41.339
G01 X43.314 Y41.355
G01 X43.317 Y41.372
G01 X43.320 Y41.388
G01 X43.321 Y41.394
G01 X43.325 Y41.410
G01 X43.328 Y41.427
G01 X43.332 Y41.443
G01 X43.335 Y41.459
G01 X43.336 Y41.466
G01 X43.341 Y41.483
G01 X43.345 Y41.499
G01 X43.349 Y41.515
G01 X43.353 Y41.531
G01 X43.355 Y41.539
G01 X43.360 Y41.555
G01 X43.365 Y41.571
G01 X43.370 Y41.587
G01 X43.374 Y41.603
G01 X43.376 Y41.611
G01 X43.382 Y41.627
G01 X43.388 Y41.643
G01 X43.394 Y41.658
G01 X43.399 Y41.674
G01 X43.402 Y41.683
G01 X43.408 Y41.698
G01 X43.415 Y41.714
G01 X43.421 Y41.729
G01 X43.427 Y41.744
G01 X43.430 Y41.754
G01 X43.438 Y41.769
G01 X43.445 Y41.784
G01 X43.451 Y41.799
G01 X43.458 Y41.814
G01 X43.462 Y41.824
G01 X43.470 Y41.838
G01 X43.478 Y41.853
G01 X43.485 Y41.867
G01 X43.493 Y41.881
G01 X43.498 Y41.893
G01 X43.507 Y41.907
G01 X43.515 Y41.920
G01 X43.523 Y41.934
G01 X43.531 Y41.948
G01 X43.537 Y41.960
G01 X43.546 Y41.973
G01 X43.555 Y41.986
G01 X43.564 Y41.999
G01 X43.572 Y42.013
G01 X43.580 Y42.025
G01 X43.589 Y42.038
G01 X43.599 Y42.050
G01 X43.608 Y42.063
G01 X43.617 Y42.076
G01 X43.626 Y42.088
G01 X43.636 Y42.100
G01 X43.646 Y42.112
G01 X43.655 Y42.124
G01 X43.665 Y42.137
G01 X43.674 Y42.149
G01 X43.675 Y42.149
G01 X43.685 Y42.160
G01 X43.696 Y42.172
G01 X43.706 Y42.183
G01 X43.716 Y42.195
G01 X43.726 Y42.207
G01 X43.727 Y42.207
G01 X43.738 Y42.218
G01 X43.749 Y42.229
G01 X43.760 Y42.240
G01 X43.771 Y42.251
G01 X43.781 Y42.262
G01 X43.782 Y42.263
G01 X43.794 Y42.273
G01 X43.805 Y42.283
G01 X43.817 Y42.294
G01 X43.828 Y42.304
G01 X43.840 Y42.315
G01 X43.841 Y42.316
G01 X43.853 Y42.325
G01 X43.865 Y42.335
G01 X43.877 Y42.344
G01 X43.889 Y42.354
G01 X43.901 Y42.364
G01 X43.902 Y42.365
G01 X43.915 Y42.374
G01 X43.928 Y42.383
G01 X43.940 Y42.392
G01 X43.953 Y42.402
G01 X43.965 Y42.411
G01 X43.967 Y42.412
G01 X43.980 Y42.420
G01 X43.994 Y42.429
G01 X44.007 Y42.437
G01 X44.020 Y42.446
G01 X44.033 Y42.455
G01 X44.035 Y42.456
G01 X44.049 Y42.464
G01 X44.063 Y42.472
G01 X44.077 Y42.480
G01 X44.090 Y42.488
G01 X44.104 Y42.497
G01 X44.107 Y42.499
G01 X44.121 Y42.506
G01 X44.135 Y42.513
G01 X44.150 Y42.521
G01 X44.164 Y42.529
G01 X44.178 Y42.537
G01 X44.182 Y42.539
G01 X44.197 Y42.546
G01 X44.211 Y42.553
G01 X44.226 Y42.561
G01 X44.241 Y42.568
G01 X44.255 Y42.576
G01 X44.261 Y42.579
G01 X44.276 Y42.586
G01 X44.291 Y42.593
G01 X44.306 Y42.600
G01 X44.321 Y42.607
G01 X44.336 Y42.615
G01 X44.344 Y42.619
G01 X44.360 Y42.626
G01 X44.375 Y42.633
G01 X44.390 Y42.640
G01 X44.406 Y42.648
G01 X44.421 Y42.656
G01 X44.432 Y42.661
G01 X44.447 Y42.668
G01 X44.463 Y42.675
G01 X44.479 Y42.683
G01 X44.495 Y42.690
G01 X44.510 Y42.698
G01 X44.523 Y42.705
G01 X44.539 Y42.713
G01 X44.555 Y42.721
G01 X44.571 Y42.729
G01 X44.587 Y42.737
G01 X44.604 Y42.746
G01 X44.619 Y42.754
G01 X44.636 Y42.762
G01 X44.652 Y42.771
G01 X44.668 Y42.780
G01 X44.685 Y42.789
G01 X44.701 Y42.798
G01 X44.718 Y42.808
G01 X44.720 Y42.809
G01 X44.736 Y42.818
G01 X44.753 Y42.828
G01 X44.770 Y42.838
G01 X44.787 Y42.848
G01 X44.803 Y42.858
G01 X44.820 Y42.869
G01 X44.824 Y42.871
G01 X44.841 Y42.882
G01 X44.858 Y42.893
G01 X44.875 Y42.904
G01 X44.892 Y42.915
G01 X44.909 Y42.926
G01 X44.926 Y42.938
G01 X44.932 Y42.942
G01 X44.949 Y42.954
G01 X44.967 Y42.966
G01 X44.984 Y42.978
G01 X45.001 Y42.991
G01 X45.018 Y43.004
G01 X45.035 Y43.017
G01 X45.042 Y43.022
G01 X45.059 Y43.036
G01 X45.076 Y43.049
G01 X45.093 Y43.063
G01 X45.111 Y43.077
G01 X45.128 Y43.091
G01 X45.144 Y43.105
G01 X45.152 Y43.111
G01 X45.169 Y43.126
G01 X45.186 Y43.141
G01 X45.202 Y43.156
G01 X45.219 Y43.171
G01 X45.236 Y43.186
G01 X45.252 Y43.202
G01 X45.259 Y43.208
G01 X45.275 Y43.224
G01 X45.292 Y43.240
G01 X45.308 Y43.256
G01 X45.324 Y43.272
G01 X45.339 Y43.288
G01 X45.355 Y43.305
G01 X45.360 Y43.311
G01 X45.376 Y43.327
G01 X45.391 Y43.344
G01 X45.406 Y43.361
G01 X45.421 Y43.378
G01 X45.435 Y43.394
G01 X45.449 Y43.411
G01 X45.453 Y43.416
G01 X45.467 Y43.433
G01 X45.481 Y43.450
G01 X45.494 Y43.467
G01 X45.507 Y43.484
G01 X45.520 Y43.502
G01 X45.533 Y43.519
G01 X45.534 Y43.521
G01 X45.546 Y43.538
G01 X45.558 Y43.555
G01 X45.570 Y43.573
G01 X45.581 Y43.590
G01 X45.592 Y43.607
G01 X45.602 Y43.623
G01 X45.612 Y43.640
G01 X45.622 Y43.657
G01 X45.632 Y43.674
G01 X45.641 Y43.691
G01 X45.650 Y43.708
G01 X45.656 Y43.720
G01 X45.664 Y43.737
G01 X45.672 Y43.753
G01 X45.680 Y43.770
G01 X45.687 Y43.787
G01 X45.694 Y43.804
G01 X45.696 Y43.810
G01 X45.703 Y43.827
G01 X45.708 Y43.843
G01 X45.714 Y43.860
G01 X45.719 Y43.876
G01 X45.724 Y43.892
G01 X45.724 Y43.894
G01 X45.728 Y43.910
G01 X45.732 Y43.926
G01 X45.735 Y43.942
G01 X45.739 Y43.958
G01 X45.741 Y43.970
G01 X45.743 Y43.986
G01 X45.745 Y44.001
G01 X45.746 Y44.017
G01 X45.747 Y44.032
G01 X45.748 Y44.038
G01 X45.748 Y44.054
G01 X45.748 Y44.069
G01 X45.747 Y44.084
G01 X45.747 Y44.099
G01 X45.747 Y44.100
G01 X45.745 Y44.115
G01 X45.743 Y44.130
G01 X45.741 Y44.145
G01 X45.740 Y44.154
G01 X45.736 Y44.169
G01 X45.733 Y44.184
G01 X45.729 Y44.198
G01 X45.728 Y44.202
G01 X45.723 Y44.216
G01 X45.718 Y44.231
G01 X45.714 Y44.243
G01 X45.707 Y44.257
G01 X45.701 Y44.271
G01 X45.698 Y44.277
G01 X45.690 Y44.291
G01 X45.682 Y44.305
G01 X45.682 Y44.305
G01 X45.673 Y44.319
G01 X45.668 Y44.327
G01 X45.658 Y44.340
G01 X45.656 Y44.342
G01 X45.648 Y44.352
G01 X45.645 Y44.355
G01 X45.646 Y44.354
G01 X45.654 Y44.348
G01 X45.667 Y44.338
G01 X45.681 Y44.329
G01 X45.687 Y44.326
G01 X45.701 Y44.318
G01 X45.713 Y44.312
G01 X45.728 Y44.305
G01 X45.742 Y44.299
G01 X45.746 Y44.297
G01 X45.761 Y44.292
G01 X45.776 Y44.287
G01 X45.786 Y44.284
G01 X45.801 Y44.280
G01 X45.816 Y44.277
G01 X45.830 Y44.274
G01 X45.833 Y44.273
G01 X45.848 Y44.271
G01 X45.863 Y44.270
G01 X45.878 Y44.268
G01 X45.886 Y44.267
G01 X45.902 Y44.267
G01 X45.917 Y44.266
G01 X45.932 Y44.266
G01 X45.947 Y44.267
G01 X45.963 Y44.268
G01 X45.978 Y44.269
G01 X45.994 Y44.271
G01 X46.009 Y44.273
G01 X46.015 Y44.274
G01 X46.031 Y44.277
G01 X46.047 Y44.280
G01 X46.063 Y44.284
G01 X46.079 Y44.288
G01 X46.091 Y44.291
G01 X46.107 Y44.296
G01 X46.123 Y44.301
G01 X46.140 Y44.306
G01 X46.156 Y44.312
G01 X46.172 Y44.318
G01 X46.174 Y44.319
G01 X46.191 Y44.326
G01 X46.207 Y44.333
G01 X46.224 Y44.340
G01 X46.240 Y44.348
G01 X46.257 Y44.356
G01 X46.265 Y44.360
G01 X46.281 Y44.368
G01 X46.298 Y44.377
G01 X46.315 Y44.387
G01 X46.332 Y44.396
G01 X46.348 Y44.406
G01 X46.361 Y44.414
G01 X46.378 Y44.425
G01 X46.395 Y44.436
G01 X46.412 Y44.447
G01 X46.429 Y44.458
G01 X46.446 Y44.470
G01 X46.462 Y44.482
G01 X46.463 Y44.482
G01 X46.480 Y44.495
G01 X46.496 Y44.507
G01 X46.513 Y44.520
G01 X46.530 Y44.533
G01 X46.546 Y44.547
G01 X46.563 Y44.560
G01 X46.567 Y44.564
G01 X46.584 Y44.578
G01 X46.600 Y44.592
G01 X46.616 Y44.606
G01 X46.633 Y44.621
G01 X46.649 Y44.636
G01 X46.665 Y44.651
G01 X46.672 Y44.657
G01 X46.688 Y44.672
G01 X46.703 Y44.688
G01 X46.719 Y44.703
G01 X46.734 Y44.719
G01 X46.749 Y44.734
G01 X46.764 Y44.750
G01 X46.773 Y44.760
G01 X46.788 Y44.776
G01 X46.803 Y44.792
G01 X46.817 Y44.808
G01 X46.831 Y44.824
G01 X46.846 Y44.841
G01 X46.859 Y44.857
G01 X46.869 Y44.868
G01 X46.882 Y44.884
G01 X46.896 Y44.901
G01 X46.909 Y44.918
G01 X46.922 Y44.934
G01 X46.935 Y44.951
G01 X46.947 Y44.968
G01 X46.956 Y44.979
G01 X46.968 Y44.996
G01 X46.981 Y45.013
G01 X46.993 Y45.029
G01 X47.004 Y45.046
G01 X47.016 Y45.063
G01 X47.027 Y45.079
G01 X47.034 Y45.091
G01 X47.045 Y45.108
G01 X47.056 Y45.124
G01 X47.067 Y45.141
G01 X47.077 Y45.157
G01 X47.087 Y45.174
G01 X47.097 Y45.190
G01 X47.103 Y45.201
G01 X47.113 Y45.218
G01 X47.122 Y45.234
G01 X47.132 Y45.250
G01 X47.141 Y45.266
G01 X47.150 Y45.283
G01 X47.158 Y45.299
G01 X47.163 Y45.308
G01 X47.172 Y45.324
G01 X47.180 Y45.340
G01 X47.188 Y45.356
G01 X47.196 Y45.372
G01 X47.204 Y45.388
G01 X47.212 Y45.404
G01 X47.215 Y45.412
G01 X47.223 Y45.427
G01 X47.231 Y45.443
G01 X47.238 Y45.459
G01 X47.245 Y45.474
G01 X47.252 Y45.490
G01 X47.259 Y45.506
G01 X47.261 Y45.511
G01 X47.268 Y45.526
G01 X47.275 Y45.542
G01 X47.282 Y45.557
G01 X47.288 Y45.572
G01 X47.295 Y45.588
G01 X47.301 Y45.603
G01 X47.302 Y45.606
G01 X47.309 Y45.621
G01 X47.316 Y45.636
G01 X47.322 Y45.651
G01 X47.328 Y45.666
G01 X47.334 Y45.681
G01 X47.340 Y45.696
G01 X47.340 Y45.697
G01 X47.347 Y45.711
G01 X47.353 Y45.726
G01 X47.360 Y45.741
G01 X47.366 Y45.755
G01 X47.372 Y45.770
G01 X47.377 Y45.783
G01 X47.383 Y45.798
G01 X47.390 Y45.812
G01 X47.396 Y45.826
G01 X47.402 Y45.841
G01 X47.408 Y45.855
G01 X47.413 Y45.866
G01 X47.420 Y45.880
G01 X47.427 Y45.894
G01 X47.433 Y45.908
G01 X47.440 Y45.922
G01 X47.446 Y45.936
G01 X47.450 Y45.945
G01 X47.457 Y45.958
G01 X47.464 Y45.972
G01 X47.471 Y45.985
G01 X47.478 Y45.999
G01 X47.485 Y46.012
G01 X47.488 Y46.020
G01 X47.496 Y46.033
G01 X47.504 Y46.046
G01 X47.511 Y46.059
G01 X47.519 Y46.072
G01 X47.526 Y46.085
G01 X47.529 Y46.092
G01 X47.538 Y46.104
G01 X47.546 Y46.116
G01 X47.554 Y46.129
G01 X47.562 Y46.141
G01 X47.570 Y46.154
G01 X47.573 Y46.160
G01 X47.582 Y46.171
G01 X47.591 Y46.183
G01 X47.599 Y46.195
G01 X47.608 Y46.207
G01 X47.616 Y46.218
G01 X47.620 Y46.224
G01 X47.630 Y46.235
G01 X47.639 Y46.246
G01 X47.648 Y46.257
G01 X47.657 Y46.268
G01 X47.666 Y46.280
G01 X47.670 Y46.285
G01 X47.680 Y46.295
G01 X47.690 Y46.305
G01 X47.700 Y46.316
G01 X47.710 Y46.327
G01 X47.720 Y46.337
G01 X47.724 Y46.342
G01 X47.734 Y46.352
G01 X47.745 Y46.361
G01 X47.756 Y46.371
G01 X47.766 Y46.381
G01 X47.776 Y46.391
G01 X47.780 Y46.396
G01 X47.792 Y46.405
G01 X47.803 Y46.414
G01 X47.814 Y46.423
G01 X47.825 Y46.432
G01 X47.836 Y46.442
G01 X47.840 Y46.446
G01 X47.852 Y46.454
G01 X47.864 Y46.463
G01 X47.876 Y46.471
G01 X47.887 Y46.480
G01 X47.899 Y46.489
G01 X47.903 Y46.492
G01 X47.915 Y46.500
G01 X47.928 Y46.508
G01 X47.940 Y46.516
G01 X47.952 Y46.524
G01 X47.965 Y46.532
G01 X47.968 Y46.535
G01 X47.981 Y46.542
G01 X47.994 Y46.549
G01 X48.007 Y46.556
G01 X48.020 Y46.564
G01 X48.033 Y46.572
G01 X48.035 Y46.573
G01 X48.049 Y46.580
G01 X48.063 Y46.586
G01 X48.076 Y46.593
G01 X48.090 Y46.600
G01 X48.103 Y46.607
G01 X48.105 Y46.608
G01 X48.119 Y46.614
G01 X48.133 Y46.620
G01 X48.147 Y46.626
G01 X48.161 Y46.632
G01 X48.176 Y46.639
G01 X48.176 Y46.639
G01 X48.191 Y46.644
G01 X48.206 Y46.649
G01 X48.220 Y46.655
G01 X48.235 Y46.661
G01 X48.249 Y46.666
G01 X48.264 Y46.671
G01 X48.279 Y46.675
G01 X48.294 Y46.680
G01 X48.309 Y46.685
G01 X48.323 Y46.689
G01 X48.338 Y46.693
G01 X48.354 Y46.697
G01 X48.369 Y46.701
G01 X48.385 Y46.705
G01 X48.398 Y46.709
G01 X48.413 Y46.712
G01 X48.429 Y46.715
G01 X48.444 Y46.718
G01 X48.460 Y46.722
G01 X48.473 Y46.725
G01 X48.488 Y46.727
G01 X48.504 Y46.730
G01 X48.520 Y46.732
G01 X48.536 Y46.735
G01 X48.548 Y46.738
G01 X48.564 Y46.739
G01 X48.579 Y46.741
G01 X48.595 Y46.743
G01 X48.611 Y46.746
G01 X48.623 Y46.748
G01 X48.638 Y46.749
G01 X48.654 Y46.750
G01 X48.670 Y46.752
G01 X48.686 Y46.754
G01 X48.696 Y46.755
G01 X48.712 Y46.756
G01 X48.728 Y46.756
G01 X48.743 Y46.758
G01 X48.759 Y46.759
G01 X48.769 Y46.760
G01 X48.784 Y46.760
G01 X48.800 Y46.761
G01 X48.816 Y46.762
G01 X48.831 Y46.763
G01 X48.839 Y46.763
G01 X48.855 Y46.763
G01 X48.870 Y46.764
G01 X48.886 Y46.764
G01 X48.901 Y46.765
G01 X48.907 Y46.765
G01 X48.922 Y46.765
G01 X48.938 Y46.765
G01 X48.953 Y46.765
G01 X48.969 Y46.766
G01 X48.972 Y46.766
G01 X48.987 Y46.765
G01 X49.002 Y46.765
G01 X49.017 Y46.765
G01 X49.032 Y46.765
G01 X49.047 Y46.764
G01 X49.061 Y46.764
G01 X49.077 Y46.763
G01 X49.087 Y46.763
G01 X49.101 Y46.762
G01 X49.116 Y46.761
G01 X49.131 Y46.761
G01 X49.136 Y46.761
G01 X49.150 Y46.759
G01 X49.164 Y46.758
G01 X49.178 Y46.757
G01 X49.191 Y46.755
G01 X49.205 Y46.753
G01 X49.212 Y46.752
G01 X49.224 Y46.749
G01 X49.237 Y46.747
G01 X49.249 Y46.743
G01 X49.254 Y46.741
G01 X49.264 Y46.735
G01 X49.266 Y46.734
G01 X49.263 Y46.737
G01 X49.258 Y46.747
G01 X49.254 Y46.758
G01 X49.252 Y46.764
G01 X49.249 Y46.777
G01 X49.246 Y46.789
G01 X49.246 Y46.790
G01 X49.244 Y46.804
G01 X49.242 Y46.817
G01 X49.241 Y46.825
G01 X49.239 Y46.839
G01 X49.238 Y46.853
G01 X49.236 Y46.867
G01 X49.236 Y46.867
G01 X49.235 Y46.882
G01 X49.234 Y46.896
G01 X49.233 Y46.911
G01 X49.232 Y46.917
G01 X49.232 Y46.932
G01 X49.232 Y46.947
G01 X49.231 Y46.962
G01 X49.230 Y46.973
G01 X49.230 Y46.988
G01 X49.230 Y47.003
G01 X49.229 Y47.018
G01 X49.228 Y47.033
G01 X49.228 Y47.035
G01 X49.228 Y47.050
G01 X49.228 Y47.065
G01 X49.228 Y47.080
G01 X49.227 Y47.095
G01 X49.227 Y47.100
G01 X49.228 Y47.116
G01 X49.228 Y47.131
G01 X49.228 Y47.147
G01 X49.228 Y47.162
G01 X49.227 Y47.170
G01 X49.228 Y47.186
G01 X49.229 Y47.201
G01 X49.229 Y47.217
G01 X49.229 Y47.232
G01 X49.229 Y47.242
G01 X49.230 Y47.258
G01 X49.231 Y47.274
G01 X49.231 Y47.289
G01 X49.232 Y47.305
G01 X49.232 Y47.317
G01 X49.234 Y47.333
G01 X49.235 Y47.348
G01 X49.236 Y47.364
G01 X49.237 Y47.379
G01 X49.237 Y47.393
G01 X49.239 Y47.409
G01 X49.241 Y47.424
G01 X49.242 Y47.440
G01 X49.244 Y47.456
G01 X49.245 Y47.470
G01 X49.247 Y47.486
G01 X49.249 Y47.501
G01 X49.251 Y47.517
G01 X49.253 Y47.533
G01 X49.255 Y47.548
G01 X49.258 Y47.563
G01 X49.261 Y47.579
G01 X49.263 Y47.594
G01 X49.266 Y47.610
G01 X49.268 Y47.625
G01 X49.268 Y47.626
G01 X49.272 Y47.641
G01 X49.275 Y47.656
G01 X49.278 Y47.672
G01 X49.281 Y47.687
G01 X49.284 Y47.702
G01 X49.284 Y47.703
G01 X49.289 Y47.718
G01 X49.293 Y47.733
G01 X49.297 Y47.748
G01 X49.301 Y47.763
G01 X49.304 Y47.778
G01 X49.305 Y47.780
G01 X49.310 Y47.795
G01 X49.314 Y47.809
G01 X49.319 Y47.824
G01 X49.323 Y47.838
G01 X49.327 Y47.853
G01 X49.328 Y47.856
G01 X49.334 Y47.870
G01 X49.339 Y47.884
G01 X49.345 Y47.898
G01 X49.350 Y47.912
G01 X49.355 Y47.927
G01 X49.356 Y47.931
G01 X49.362 Y47.944
G01 X49.368 Y47.958
G01 X49.374 Y47.971
G01 X49.380 Y47.985
G01 X49.386 Y47.998
G01 X49.388 Y48.003
G01 X49.395 Y48.016
G01 X49.401 Y48.029
G01 X49.408 Y48.042
G01 X49.414 Y48.055
G01 X49.420 Y48.068
G01 X49.423 Y48.074
G01 X49.431 Y48.086
G01 X49.438 Y48.099
G01 X49.445 Y48.111
G01 X49.452 Y48.123
G01 X49.459 Y48.136
G01 X49.463 Y48.142
G01 X49.471 Y48.154
G01 X49.479 Y48.165
G01 X49.487 Y48.177
G01 X49.494 Y48.189
G01 X49.502 Y48.201
G01 X49.506 Y48.208
G01 X49.515 Y48.219
G01 X49.524 Y48.230
G01 X49.532 Y48.241
G01 X49.540 Y48.252
G01 X49.548 Y48.263
G01 X49.554 Y48.270
G01 X49.563 Y48.280
G01 X49.572 Y48.291
G01 X49.581 Y48.301
G01 X49.590 Y48.311
G01 X49.599 Y48.322
G01 X49.605 Y48.329
G01 X49.615 Y48.339
G01 X49.625 Y48.348
G01 X49.635 Y48.358
G01 X49.644 Y48.368
G01 X49.654 Y48.378
G01 X49.660 Y48.385
G01 X49.671 Y48.393
G01 X49.682 Y48.402
G01 X49.692 Y48.411
G01 X49.702 Y48.420
G01 X49.713 Y48.430
G01 X49.720 Y48.436
G01 X49.731 Y48.444
G01 X49.742 Y48.453
G01 X49.753 Y48.461
G01 X49.764 Y48.469
G01 X49.775 Y48.478
G01 X49.783 Y48.484
G01 X49.795 Y48.492
G01 X49.807 Y48.499
G01 X49.819 Y48.507
G01 X49.830 Y48.515
G01 X49.842 Y48.523
G01 X49.851 Y48.528
G01 X49.863 Y48.535
G01 X49.876 Y48.542
G01 X49.888 Y48.549
G01 X49.900 Y48.556
G01 X49.913 Y48.564
G01 X49.922 Y48.569
G01 X49.935 Y48.576
G01 X49.948 Y48.582
G01 X49.961 Y48.588
G01 X49.974 Y48.595
G01 X49.987 Y48.602
G01 X49.998 Y48.608
G01 X50.011 Y48.613
G01 X50.025 Y48.619
G01 X50.038 Y48.625
G01 X50.052 Y48.631
G01 X50.065 Y48.638
G01 X50.077 Y48.644
G01 X50.091 Y48.649
G01 X50.105 Y48.655
G01 X50.119 Y48.660
G01 X50.133 Y48.666
G01 X50.147 Y48.672
G01 X50.161 Y48.679
G01 X50.161 Y48.679
G01 X50.176 Y48.684
G01 X50.190 Y48.689
G01 X50.204 Y48.695
G01 X50.219 Y48.701
G01 X50.233 Y48.707
G01 X50.247 Y48.713
G01 X50.250 Y48.714
G01 X50.264 Y48.719
G01 X50.279 Y48.724
G01 X50.293 Y48.730
G01 X50.308 Y48.736
G01 X50.322 Y48.742
G01 X50.337 Y48.748
G01 X50.342 Y48.750
G01 X50.357 Y48.756
G01 X50.372 Y48.762
G01 X50.386 Y48.767
G01 X50.401 Y48.774
G01 X50.416 Y48.780
G01 X50.431 Y48.786
G01 X50.439 Y48.790
G01 X50.454 Y48.796
G01 X50.469 Y48.802
G01 X50.484 Y48.808
G01 X50.499 Y48.815
G01 X50.514 Y48.822
G01 X50.529 Y48.829
G01 X50.539 Y48.834
G01 X50.555 Y48.841
G01 X50.570 Y48.848
G01 X50.585 Y48.855
G01 X50.600 Y48.862
G01 X50.616 Y48.870
G01 X50.631 Y48.878
G01 X50.644 Y48.885
G01 X50.660 Y48.892
G01 X50.675 Y48.900
G01 X50.691 Y48.908
G01 X50.706 Y48.917
G01 X50.722 Y48.925
G01 X50.737 Y48.934
G01 X50.753 Y48.943
G01 X50.753 Y48.943
G01 X50.768 Y48.952
G01 X50.784 Y48.961
G01 X50.800 Y48.970
G01 X50.815 Y48.980
G01 X50.831 Y48.989
G01 X50.846 Y48.999
G01 X50.862 Y49.010
G01 X50.864 Y49.011
G01 X50.879 Y49.021
G01 X50.895 Y49.031
G01 X50.911 Y49.042
G01 X50.927 Y49.052
G01 X50.942 Y49.063
G01 X50.958 Y49.075
G01 X50.973 Y49.086
G01 X50.976 Y49.088
G01 X50.992 Y49.100
G01 X51.007 Y49.111
G01 X51.023 Y49.123
G01 X51.038 Y49.135
G01 X51.054 Y49.148
G01 X51.069 Y49.160
G01 X51.085 Y49.173
G01 X51.088 Y49.176
G01 X51.103 Y49.188
G01 X51.118 Y49.201
G01 X51.133 Y49.214
G01 X51.149 Y49.228
G01 X51.163 Y49.241
G01 X51.178 Y49.255
G01 X51.193 Y49.269
G01 X51.196 Y49.271
G01 X51.211 Y49.285
G01 X51.225 Y49.300
G01 X51.239 Y49.314
G01 X51.254 Y49.328
G01 X51.268 Y49.343
G01 X51.282 Y49.357
G01 X51.296 Y49.372
G01 X51.297 Y49.374
G01 X51.311 Y49.389
G01 X51.324 Y49.404
G01 X51.338 Y49.419
G01 X51.351 Y49.434
G01 X51.364 Y49.449
G01 X51.376 Y49.465
G01 X51.389 Y49.480
G01 X51.401 Y49.495
G01 X51.413 Y49.511
G01 X51.425 Y49.527
G01 X51.436 Y49.542
G01 X51.448 Y49.558
G01 X51.459 Y49.574
G01 X51.468 Y49.587
G01 X51.479 Y49.603
G01 X51.489 Y49.618
G01 X51.499 Y49.634
G01 X51.509 Y49.650
G01 X51.518 Y49.666
G01 X51.528 Y49.682
G01 X51.533 Y49.692
G01 X51.542 Y49.707
G01 X51.550 Y49.723
G01 X51.558 Y49.739
G01 X51.566 Y49.755
G01 X51.574 Y49.771
G01 X51.581 Y49.787
G01 X51.583 Y49.792
G01 X51.590 Y49.808
G01 X51.596 Y49.824
G01 X51.602 Y49.840
G01 X51.608 Y49.855
G01 X51.614 Y49.871
G01 X51.619 Y49.887
G01 X51.619 Y49.887
G01 X51.624 Y49.903
G01 X51.628 Y49.919
G01 X51.632 Y49.934
G01 X51.636 Y49.950
G01 X51.640 Y49.965
G01 X51.642 Y49.976
G01 X51.644 Y49.992
G01 X51.647 Y50.007
G01 X51.649 Y50.023
G01 X51.650 Y50.038
G01 X51.652 Y50.053
G01 X51.652 Y50.058
G01 X51.653 Y50.073
G01 X51.653 Y50.089
G01 X51.653 Y50.104
G01 X51.653 Y50.119
G01 X51.653 Y50.133
G01 X51.652 Y50.149
G01 X51.650 Y50.164
G01 X51.648 Y50.179
G01 X51.646 Y50.194
G01 X51.645 Y50.202
G01 X51.642 Y50.217
G01 X51.638 Y50.232
G01 X51.635 Y50.247
G01 X51.631 Y50.263
G01 X51.630 Y50.264
G01 X51.625 Y50.279
G01 X51.620 Y50.294
G01 X51.615 Y50.309
G01 X51.611 Y50.319
G01 X51.604 Y50.334
G01 X51.597 Y50.350
G01 X51.590 Y50.365
G01 X51.589 Y50.368
G01 X51.580 Y50.383
G01 X51.571 Y50.399
G01 X51.565 Y50.410
G01 X51.555 Y50.426
G01 X51.544 Y50.442
G01 X51.542 Y50.445
G01 X51.530 Y50.461
G01 X51.521 Y50.474
G01 X51.508 Y50.490
G01 X51.504 Y50.494
G01 X51.493 Y50.507
G01 X51.488 Y50.512
G01 X51.490 Y50.510
G01 X51.500 Y50.501
G01 X51.517 Y50.488
G01 X51.519 Y50.487
G01 X51.535 Y50.475
G01 X51.545 Y50.468
G01 X51.561 Y50.457
G01 X51.577 Y50.447
G01 X51.578 Y50.447
G01 X51.595 Y50.438
G01 X51.610 Y50.429
G01 X51.619 Y50.424
G01 X51.635 Y50.417
G01 X51.651 Y50.410
G01 X51.666 Y50.403
G01 X51.667 Y50.403
G01 X51.683 Y50.397
G01 X51.698 Y50.392
G01 X51.714 Y50.387
G01 X51.722 Y50.384
G01 X51.737 Y50.381
G01 X51.752 Y50.377
G01 X51.768 Y50.374
G01 X51.783 Y50.370
G01 X51.798 Y50.368
G01 X51.813 Y50.366
G01 X51.829 Y50.365
G01 X51.844 Y50.363
G01 X51.851 Y50.363
G01 X51.866 Y50.363
G01 X51.881 Y50.362
G01 X51.897 Y50.363
G01 X51.912 Y50.363
G01 X51.926 Y50.364
G01 X51.941 Y50.365
G01 X51.956 Y50.367
G01 X51.972 Y50.369
G01 X51.987 Y50.371
G01 X52.003 Y50.374
G01 X52.008 Y50.374
G01 X52.023 Y50.378
G01 X52.038 Y50.381
G01 X52.054 Y50.385
G01 X52.069 Y50.389
G01 X52.085 Y50.394
G01 X52.096 Y50.397
G01 X52.112 Y50.402
G01 X52.127 Y50.408
G01 X52.143 Y50.414
G01 X52.158 Y50.420
G01 X52.174 Y50.426
G01 X52.190 Y50.432
G01 X52.191 Y50.433
G01 X52.207 Y50.440
G01 X52.222 Y50.448
G01 X52.238 Y50.455
G01 X52.254 Y50.463
G01 X52.269 Y50.472
G01 X52.285 Y50.480
G01 X52.292 Y50.484
G01 X52.307 Y50.493
G01 X52.323 Y50.502
G01 X52.338 Y50.512
G01 X52.354 Y50.521
G01 X52.369 Y50.531
G01 X52.385 Y50.541
G01 X52.396 Y50.549
G01 X52.412 Y50.560
G01 X52.427 Y50.571
G01 X52.442 Y50.582
G01 X52.457 Y50.594
G01 X52.472 Y50.605
G01 X52.488 Y50.617
G01 X52.502 Y50.629
G01 X52.517 Y50.641
G01 X52.532 Y50.654
G01 X52.547 Y50.666
G01 X52.562 Y50.679
G01 X52.576 Y50.692
G01 X52.591 Y50.705
G01 X52.605 Y50.719
G01 X52.608 Y50.721
G01 X52.622 Y50.735
G01 X52.636 Y50.748
G01 X52.650 Y50.762
G01 X52.664 Y50.776
G01 X52.678 Y50.790
G01 X52.691 Y50.804
G01 X52.705 Y50.819
G01 X52.709 Y50.824
G01 X52.722 Y50.838
G01 X52.735 Y50.852
G01 X52.748 Y50.867
G01 X52.761 Y50.882
G01 X52.774 Y50.897
G01 X52.786 Y50.911
G01 X52.798 Y50.926
G01 X52.804 Y50.933
G01 X52.816 Y50.948
G01 X52.828 Y50.963
G01 X52.839 Y50.978
G01 X52.851 Y50.993
G01 X52.862 Y51.008
G01 X52.873 Y51.024
G01 X52.884 Y51.039
G01 X52.889 Y51.046
G01 X52.900 Y51.061
G01 X52.911 Y51.077
G01 X52.921 Y51.092
G01 X52.931 Y51.107
G01 X52.941 Y51.123
G01 X52.951 Y51.138
G01 X52.960 Y51.153
G01 X52.965 Y51.161
G01 X52.974 Y51.176
G01 X52.984 Y51.191
G01 X52.993 Y51.207
G01 X53.001 Y51.222
G01 X53.010 Y51.237
G01 X53.018 Y51.253
G01 X53.027 Y51.268
G01 X53.030 Y51.274
G01 X53.038 Y51.290
G01 X53.046 Y51.305
G01 X53.054 Y51.320
G01 X53.062 Y51.335
G01 X53.069 Y51.350
G01 X53.076 Y51.365
G01 X53.083 Y51.381
G01 X53.086 Y51.386
G01 X53.093 Y51.401
G01 X53.100 Y51.416
G01 X53.107 Y51.431
G01 X53.113 Y51.446
G01 X53.120 Y51.461
G01 X53.126 Y51.476
G01 X53.132 Y51.491
G01 X53.133 Y51.494
G01 X53.139 Y51.508
G01 X53.146 Y51.523
G01 X53.151 Y51.538
G01 X53.157 Y51.553
G01 X53.163 Y51.568
G01 X53.168 Y51.583
G01 X53.173 Y51.597
G01 X53.173 Y51.598
G01 X53.179 Y51.613
G01 X53.185 Y51.627
G01 X53.190 Y51.642
G01 X53.195 Y51.656
G01 X53.200 Y51.671
G01 X53.205 Y51.686
G01 X53.209 Y51.699
G01 X53.214 Y51.713
G01 X53.220 Y51.727
G01 X53.225 Y51.742
G01 X53.229 Y51.756
G01 X53.234 Y51.770
G01 X53.238 Y51.785
G01 X53.241 Y51.795
G01 X53.247 Y51.809
G01 X53.252 Y51.823
G01 X53.257 Y51.837
G01 X53.261 Y51.852
G01 X53.266 Y51.866
G01 X53.270 Y51.880
G01 X53.272 Y51.888
G01 X53.277 Y51.901
G01 X53.282 Y51.915
G01 X53.287 Y51.929
G01 X53.292 Y51.943
G01 X53.296 Y51.957
G01 X53.301 Y51.971
G01 X53.302 Y51.976
G01 X53.308 Y51.990
G01 X53.313 Y52.003
G01 X53.318 Y52.016
G01 X53.323 Y52.030
G01 X53.328 Y52.043
G01 X53.333 Y52.057
G01 X53.334 Y52.061
G01 X53.340 Y52.074
G01 X53.345 Y52.086
G01 X53.351 Y52.099
G01 X53.356 Y52.112
G01 X53.361 Y52.125
G01 X53.366 Y52.139
G01 X53.367 Y52.141
G01 X53.374 Y52.153
G01 X53.380 Y52.166
G01 X53.386 Y52.178
G01 X53.392 Y52.190
G01 X53.398 Y52.203
G01 X53.403 Y52.215
G01 X53.404 Y52.217
G01 X53.411 Y52.229
G01 X53.418 Y52.240
G01 X53.424 Y52.252
G01 X53.431 Y52.264
G01 X53.437 Y52.276
G01 X53.443 Y52.288
G01 X53.444 Y52.289
G01 X53.452 Y52.300
G01 X53.459 Y52.310
G01 X53.467 Y52.321
G01 X53.474 Y52.332
G01 X53.481 Y52.344
G01 X53.488 Y52.355
G01 X53.488 Y52.356
G01 X53.497 Y52.366
G01 X53.505 Y52.376
G01 X53.513 Y52.386
G01 X53.521 Y52.397
G01 X53.529 Y52.407
G01 X53.536 Y52.418
G01 X53.537 Y52.418
G01 X53.546 Y52.427
G01 X53.555 Y52.437
G01 X53.564 Y52.446
G01 X53.572 Y52.456
G01 X53.581 Y52.466
G01 X53.589 Y52.476
G01 X53.590 Y52.476
G01 X53.600 Y52.484
G01 X53.609 Y52.493
G01 X53.619 Y52.502
G01 X53.628 Y52.511
G01 X53.638 Y52.520
G01 X53.647 Y52.529
G01 X53.647 Y52.529
G01 X53.658 Y52.537
G01 X53.668 Y52.545
G01 X53.678 Y52.553
G01 X53.689 Y52.561
G01 X53.699 Y52.569
G01 X53.709 Y52.577
G01 X53.720 Y52.584
G01 X53.731 Y52.591
G01 X53.742 Y52.599
G01 X53.753 Y52.606
G01 X53.764 Y52.614
G01 X53.774 Y52.621
G01 X53.786 Y52.627
G01 X53.798 Y52.634
G01 X53.810 Y52.640
G01 X53.821 Y52.647
G01 X53.833 Y52.654
G01 X53.843 Y52.660
G01 X53.855 Y52.665
G01 X53.868 Y52.671
G01 X53.880 Y52.677
G01 X53.893 Y52.683
G01 X53.905 Y52.689
G01 X53.915 Y52.694
G01 X53.928 Y52.699
G01 X53.941 Y52.704
G01 X53.954 Y52.709
G01 X53.967 Y52.714
G01 X53.980 Y52.720
G01 X53.989 Y52.724
G01 X54.003 Y52.728
G01 X54.017 Y52.732
G01 X54.031 Y52.737
G01 X54.044 Y52.741
G01 X54.058 Y52.746
G01 X54.066 Y52.749
G01 X54.080 Y52.753
G01 X54.095 Y52.756
G01 X54.109 Y52.760
G01 X54.123 Y52.764
G01 X54.137 Y52.768
G01 X54.145 Y52.771
G01 X54.159 Y52.773
G01 X54.174 Y52.776
G01 X54.189 Y52.779
G01 X54.203 Y52.782
G01 X54.218 Y52.786
G01 X54.225 Y52.788
G01 X54.240 Y52.790
G01 X54.255 Y52.792
G01 X54.270 Y52.794
G01 X54.285 Y52.797
G01 X54.300 Y52.800
G01 X54.306 Y52.801
G01 X54.321 Y52.802
G01 X54.336 Y52.804
G01 X54.351 Y52.806
G01 X54.367 Y52.808
G01 X54.382 Y52.810
G01 X54.387 Y52.811
G01 X54.402 Y52.811
G01 X54.418 Y52.812
G01 X54.433 Y52.814
G01 X54.448 Y52.815
G01 X54.464 Y52.817
G01 X54.468 Y52.817
G01 X54.483 Y52.818
G01 X54.499 Y52.818
G01 X54.514 Y52.819
G01 X54.530 Y52.820
G01 X54.545 Y52.821
G01 X54.549 Y52.821
G01 X54.564 Y52.821
G01 X54.579 Y52.821
G01 X54.595 Y52.821
G01 X54.610 Y52.822
G01 X54.626 Y52.823
G01 X54.629 Y52.823
G01 X54.644 Y52.822
G01 X54.659 Y52.822
G01 X54.674 Y52.822
G01 X54.689 Y52.822
G01 X54.705 Y52.822
G01 X54.707 Y52.823
G01 X54.721 Y52.822
G01 X54.736 Y52.821
G01 X54.752 Y52.821
G01 X54.767 Y52.820
G01 X54.782 Y52.821
G01 X54.782 Y52.821
G01 X54.797 Y52.819
G01 X54.812 Y52.819
G01 X54.827 Y52.818
G01 X54.842 Y52.818
G01 X54.855 Y52.818
G01 X54.870 Y52.816
G01 X54.884 Y52.815
G01 X54.899 Y52.814
G01 X54.914 Y52.814
G01 X54.924 Y52.813
G01 X54.938 Y52.812
G01 X54.953 Y52.811
G01 X54.967 Y52.810
G01 X54.982 Y52.809
G01 X54.988 Y52.809
G01 X55.003 Y52.807
G01 X55.017 Y52.805
G01 X55.031 Y52.804
G01 X55.046 Y52.803
G01 X55.047 Y52.803
G01 X55.061 Y52.801
G01 X55.075 Y52.799
G01 X55.089 Y52.798
G01 X55.100 Y52.797
G01 X55.113 Y52.795
G01 X55.127 Y52.793
G01 X55.140 Y52.791
G01 X55.144 Y52.791
G01 X55.157 Y52.788
G01 X55.170 Y52.785
G01 X55.181 Y52.783
G01 X55.193 Y52.780
G01 X55.205 Y52.776
G01 X55.208 Y52.776
G01 X55.219 Y52.771
G01 X55.226 Y52.769
G01 X55.236 Y52.763
G01 X55.239 Y52.761
G01 X55.236 Y52.764
G01 X55.231 Y52.774
G01 X55.231 Y52.775
G01 X55.226 Y52.786
G01 X55.223 Y52.793
G01 X55.220 Y52.806
G01 X55.216 Y52.818
G01 X55.215 Y52.821
G01 X55.212 Y52.834
G01 X55.210 Y52.847
G01 X55.207 Y52.858
G01 X55.205 Y52.872
G01 X55.203 Y52.885
G01 X55.201 Y52.899
G01 X55.200 Y52.904
G01 X55.198 Y52.918
G01 X55.196 Y52.932
G01 X55.195 Y52.946
G01 X55.193 Y52.957
G01 X55.192 Y52.971
G01 X55.190 Y52.986
G01 X55.189 Y53.000
G01 X55.187 Y53.014
G01 X55.186 Y53.017
G01 X55.185 Y53.031
G01 X55.184 Y53.046
G01 X55.183 Y53.060
G01 X55.181 Y53.075
G01 X55.180 Y53.082
G01 X55.179 Y53.097
G01 X55.179 Y53.112
G01 X55.177 Y53.127
G01 X55.176 Y53.141
G01 X55.175 Y53.153
G01 X55.174 Y53.168
G01 X55.173 Y53.183
G01 X55.172 Y53.198
G01 X55.171 Y53.212
G01 X55.170 Y53.227
G01 X55.170 Y53.227
G01 X55.170 Y53.243
G01 X55.169 Y53.258
G01 X55.168 Y53.273
G01 X55.167 Y53.287
G01 X55.166 Y53.302
G01 X55.166 Y53.305
G01 X55.166 Y53.320
G01 X55.166 Y53.336
G01 X55.165 Y53.351
G01 X55.165 Y53.366
G01 X55.164 Y53.381
G01 X55.163 Y53.385
G01 X55.164 Y53.401
G01 X55.164 Y53.416
G01 X55.164 Y53.431
G01 X55.163 Y53.446
G01 X55.163 Y53.461
G01 X55.162 Y53.467
G01 X55.163 Y53.483
G01 X55.164 Y53.498
G01 X55.164 Y53.513
G01 X55.164 Y53.529
G01 X55.164 Y53.544
G01 X55.164 Y53.551
G01 X55.165 Y53.566
G01 X55.166 Y53.582
G01 X55.167 Y53.597
G01 X55.167 Y53.612
G01 X55.167 Y53.627
G01 X55.167 Y53.635
G01 X55.169 Y53.650
G01 X55.170 Y53.666
G01 X55.172 Y53.681
G01 X55.173 Y53.696
G01 X55.173 Y53.711
G01 X55.174 Y53.720
G01 X55.176 Y53.735
G01 X55.178 Y53.750
G01 X55.180 Y53.765
G01 X55.181 Y53.780
G01 X55.183 Y53.795
G01 X55.183 Y53.804
G01 X55.186 Y53.819
G01 X55.189 Y53.834
G01 X55.191 Y53.848
G01 X55.193 Y53.863
G01 X55.195 Y53.878
G01 X55.197 Y53.888
G01 X55.200 Y53.902
G01 X55.203 Y53.917
G01 X55.206 Y53.931
G01 X55.209 Y53.945
G01 X55.212 Y53.960
G01 X55.214 Y53.971
G01 X55.218 Y53.985
G01 X55.222 Y53.998
G01 X55.225 Y54.012
G01 X55.229 Y54.026
G01 X55.232 Y54.040
G01 X55.235 Y54.052
G01 X55.239 Y54.065
G01 X55.244 Y54.078
G01 X55.248 Y54.091
G01 X55.253 Y54.105
G01 X55.256 Y54.118
G01 X55.260 Y54.131
G01 X55.265 Y54.143
G01 X55.271 Y54.156
G01 X55.276 Y54.168
G01 X55.281 Y54.181
G01 X55.285 Y54.194
G01 X55.290 Y54.207
G01 X55.290 Y54.207
G01 X55.296 Y54.219
G01 X55.302 Y54.231
G01 X55.308 Y54.243
G01 X55.313 Y54.255
G01 X55.319 Y54.267
G01 X55.324 Y54.279
G01 X55.325 Y54.281
G01 X55.331 Y54.291
G01 X55.338 Y54.302
G01 X55.345 Y54.314
G01 X55.351 Y54.325
G01 X55.357 Y54.336
G01 X55.363 Y54.348
G01 X55.364 Y54.350
G01 X55.372 Y54.360
G01 X55.379 Y54.370
G01 X55.386 Y54.381
G01 X55.394 Y54.391
G01 X55.400 Y54.402
G01 X55.407 Y54.412
G01 X55.409 Y54.415
G01 X55.417 Y54.424
G01 X55.425 Y54.434
G01 X55.434 Y54.443
G01 X55.441 Y54.453
G01 X55.449 Y54.463
G01 X55.457 Y54.472
G01 X55.459 Y54.475
G01 X55.468 Y54.484
G01 X55.477 Y54.492
G01 X55.486 Y54.501
G01 X55.495 Y54.510
G01 X55.503 Y54.519
G01 X55.512 Y54.528
G01 X55.514 Y54.531
G01 X55.524 Y54.538
G01 X55.534 Y54.546
G01 X55.544 Y54.554
G01 X55.554 Y54.562
G01 X55.563 Y54.570
G01 X55.572 Y54.578
G01 X55.575 Y54.581
G01 X55.586 Y54.587
G01 X55.597 Y54.594
G01 X55.608 Y54.601
G01 X55.618 Y54.608
G01 X55.628 Y54.615
G01 X55.638 Y54.623
G01 X55.642 Y54.625
G01 X55.653 Y54.631
G01 X55.665 Y54.637
G01 X55.676 Y54.643
G01 X55.688 Y54.650
G01 X55.699 Y54.656
G01 X55.710 Y54.663
G01 X55.714 Y54.665
G01 X55.726 Y54.670
G01 X55.738 Y54.676
G01 X55.750 Y54.681
G01 X55.762 Y54.687
G01 X55.774 Y54.693
G01 X55.786 Y54.698
G01 X55.791 Y54.701
G01 X55.803 Y54.705
G01 X55.816 Y54.710
G01 X55.829 Y54.715
G01 X55.842 Y54.720
G01 X55.854 Y54.725
G01 X55.867 Y54.730
G01 X55.872 Y54.733
G01 X55.886 Y54.737
G01 X55.899 Y54.741
G01 X55.912 Y54.745
G01 X55.925 Y54.750
G01 X55.939 Y54.755
G01 X55.951 Y54.760
G01 X55.959 Y54.762
G01 X55.973 Y54.766
G01 X55.986 Y54.770
G01 X56.000 Y54.774
G01 X56.013 Y54.778
G01 X56.027 Y54.783
G01 X56.040 Y54.787
G01 X56.050 Y54.791
G01 X56.064 Y54.794
G01 X56.078 Y54.798
G01 X56.092 Y54.802
G01 X56.105 Y54.806
G01 X56.119 Y54.810
G01 X56.133 Y54.815
G01 X56.145 Y54.819
G01 X56.159 Y54.822
G01 X56.173 Y54.826
G01 X56.187 Y54.830
G01 X56.201 Y54.834
G01 X56.215 Y54.839
G01 X56.229 Y54.844
G01 X56.243 Y54.848
G01 X56.244 Y54.849
G01 X56.258 Y54.853
G01 X56.272 Y54.857
G01 X56.287 Y54.861
G01 X56.301 Y54.866
G01 X56.315 Y54.870
G01 X56.329 Y54.875
G01 X56.344 Y54.881
G01 X56.347 Y54.882
G01 X56.361 Y54.886
G01 X56.376 Y54.891
G01 X56.390 Y54.896
G01 X56.404 Y54.901
G01 X56.419 Y54.906
G01 X56.433 Y54.912
G01 X56.447 Y54.918
G01 X56.453 Y54.920
G01 X56.468 Y54.925
G01 X56.483 Y54.931
G01 X56.497 Y54.936
G01 X56.512 Y54.942
G01 X56.526 Y54.948
G01 X56.541 Y54.955
G01 X56.555 Y54.961
G01 X56.564 Y54.965
G01 X56.578 Y54.971
G01 X56.593 Y54.978
G01 X56.608 Y54.984
G01 X56.622 Y54.991
G01 X56.637 Y54.998
G01 X56.651 Y55.006
G01 X56.666 Y55.013
G01 X56.677 Y55.019
G01 X56.691 Y55.026
G01 X56.706 Y55.034
G01 X56.721 Y55.042
G01 X56.735 Y55.050
G01 X56.750 Y55.058
G01 X56.764 Y55.066
G01 X56.779 Y55.075
G01 X56.792 Y55.083
G01 X56.806 Y55.091
G01 X56.821 Y55.100
G01 X56.836 Y55.109
G01 X56.850 Y55.119
G01 X56.865 Y55.128
G01 X56.879 Y55.138
G01 X56.893 Y55.148
G01 X56.907 Y55.157
G01 X56.922 Y55.167
G01 X56.936 Y55.178
G01 X56.950 Y55.188
G01 X56.965 Y55.199
G01 X56.979 Y55.209
G01 X56.993 Y55.220
G01 X57.007 Y55.231
G01 X57.021 Y55.243
G01 X57.035 Y55.254
G01 X57.049 Y55.265
G01 X57.063 Y55.277
G01 X57.076 Y55.289
G01 X57.090 Y55.301
G01 X57.104 Y55.313
G01 X57.117 Y55.325
G01 X57.130 Y55.337
G01 X57.143 Y55.350
G01 X57.156 Y55.363
G01 X57.169 Y55.375
G01 X57.182 Y55.388
G01 X57.195 Y55.401
G01 X57.208 Y55.415
G01 X57.220 Y55.428
G01 X57.231 Y55.440
G01 X57.244 Y55.453
G01 X57.256 Y55.467
G01 X57.268 Y55.481
G01 X57.279 Y55.494
G01 X57.291 Y55.508
G01 X57.302 Y55.522
G01 X57.314 Y55.536
G01 X57.322 Y55.547
G01 X57.333 Y55.561
G01 X57.343 Y55.576
G01 X57.354 Y55.590
G01 X57.364 Y55.604
G01 X57.374 Y55.619
G01 X57.384 Y55.633
G01 X57.393 Y55.648
G01 X57.399 Y55.656
G01 X57.408 Y55.671
G01 X57.417 Y55.685
G01 X57.425 Y55.700
G01 X57.434 Y55.715
G01 X57.442 Y55.730
G01 X57.450 Y55.745
G01 X57.458 Y55.760
G01 X57.460 Y55.764
G01 X57.468 Y55.779
G01 X57.475 Y55.794
G01 X57.482 Y55.809
G01 X57.488 Y55.824
G01 X57.494 Y55.839
G01 X57.501 Y55.854
G01 X57.506 Y55.869
G01 X57.506 Y55.869
G01 X57.512 Y55.884
G01 X57.517 Y55.899
G01 X57.521 Y55.914
G01 X57.526 Y55.930
G01 X57.530 Y55.945
G01 X57.534 Y55.960
G01 X57.537 Y55.970
G01 X57.540 Y55.985
G01 X57.543 Y56.000
G01 X57.546 Y56.015
G01 X57.548 Y56.030
G01 X57.550 Y56.045
G01 X57.552 Y56.061
G01 X57.553 Y56.065
G01 X57.554 Y56.080
G01 X57.555 Y56.095
G01 X57.556 Y56.111
G01 X57.556 Y56.126
G01 X57.556 Y56.141
G01 X57.556 Y56.155
G01 X57.555 Y56.170
G01 X57.554 Y56.185
G01 X57.552 Y56.201
G01 X57.551 Y56.216
G01 X57.549 Y56.232
G01 X57.548 Y56.238
G01 X57.545 Y56.254
G01 X57.541 Y56.270
G01 X57.538 Y56.286
G01 X57.534 Y56.301
G01 X57.530 Y56.317
G01 X57.525 Y56.333
G01 X57.519 Y56.349
G01 X57.513 Y56.365
G01 X57.507 Y56.382
G01 X57.504 Y56.390
G01 X57.497 Y56.407
G01 X57.489 Y56.424
G01 X57.481 Y56.441
G01 X57.472 Y56.458
G01 X57.462 Y56.475
G01 X57.452 Y56.493
G01 X57.441 Y56.512
G01 X57.436 Y56.521
G01 X57.423 Y56.539
G01 X57.410 Y56.559
G01 X57.397 Y56.578
G01 X57.382 Y56.599
G01 X57.365 Y56.620
G01 X57.358 Y56.630
G01 X57.339 Y56.652
G01 X57.321 Y56.674
G01 X57.298 Y56.699
G01 X57.289 Y56.710
G01 X57.266 Y56.734
G01 X57.256 Y56.744
G01 X57.261 Y56.739
G01 X57.281 Y56.721
G01 X57.307 Y56.697
G01 X57.313 Y56.692
G01 X57.338 Y56.672
G01 X57.356 Y56.657
G01 X57.378 Y56.640
G01 X57.399 Y56.624
G01 X57.406 Y56.619
G01 X57.426 Y56.605
G01 X57.446 Y56.592
G01 X57.462 Y56.581
G01 X57.481 Y56.570
G01 X57.500 Y56.559
G01 X57.518 Y56.549
G01 X57.525 Y56.545
G01 X57.542 Y56.537
G01 X57.560 Y56.528
G01 X57.577 Y56.521
G01 X57.592 Y56.514
G01 X57.609 Y56.507
G01 X57.626 Y56.501
G01 X57.642 Y56.496
G01 X57.659 Y56.490
G01 X57.665 Y56.488
G01 X57.681 Y56.484
G01 X57.697 Y56.480
G01 X57.713 Y56.476
G01 X57.729 Y56.473
G01 X57.744 Y56.470
G01 X57.759 Y56.468
G01 X57.775 Y56.466
G01 X57.790 Y56.465
G01 X57.806 Y56.463
G01 X57.821 Y56.462
G01 X57.828 Y56.462
G01 X57.843 Y56.462
G01 X57.858 Y56.462
G01 X57.873 Y56.462
G01 X57.889 Y56.463
G01 X57.904 Y56.464
G01 X57.917 Y56.465
G01 X57.932 Y56.467
G01 X57.947 Y56.469
G01 X57.963 Y56.471
G01 X57.978 Y56.474
G01 X57.993 Y56.477
G01 X58.008 Y56.480
G01 X58.013 Y56.481
G01 X58.028 Y56.485
G01 X58.042 Y56.489
G01 X58.057 Y56.493
G01 X58.072 Y56.498
G01 X58.087 Y56.502
G01 X58.102 Y56.507
G01 X58.113 Y56.511
G01 X58.128 Y56.517
G01 X58.143 Y56.523
G01 X58.158 Y56.529
G01 X58.172 Y56.536
G01 X58.187 Y56.542
G01 X58.202 Y56.549
G01 X58.216 Y56.557
G01 X58.218 Y56.557
G01 X58.233 Y56.565
G01 X58.247 Y56.573
G01 X58.262 Y56.581
G01 X58.276 Y56.589
G01 X58.291 Y56.598
G01 X58.305 Y56.606
G01 X58.320 Y56.615
G01 X58.326 Y56.619
G01 X58.340 Y56.629
G01 X58.354 Y56.638
G01 X58.369 Y56.648
G01 X58.383 Y56.658
G01 X58.397 Y56.668
G01 X58.411 Y56.679
G01 X58.425 Y56.689
G01 X58.434 Y56.697
G01 X58.448 Y56.708
G01 X58.462 Y56.719
G01 X58.475 Y56.730
G01 X58.489 Y56.742
G01 X58.502 Y56.753
G01 X58.516 Y56.765
G01 X58.529 Y56.777
G01 X58.541 Y56.788
G01 X58.554 Y56.800
G01 X58.567 Y56.813
G01 X58.579 Y56.825
G01 X58.592 Y56.838
G01 X58.604 Y56.850
G01 X58.617 Y56.863
G01 X58.629 Y56.876
G01 X58.641 Y56.889
G01 X58.642 Y56.890
G01 X58.654 Y56.904
G01 X58.666 Y56.917
G01 X58.678 Y56.930
G01 X58.689 Y56.944
G01 X58.700 Y56.957
G01 X58.712 Y56.971
G01 X58.723 Y56.984
G01 X58.733 Y56.998
G01 X58.736 Y57.001
G01 X58.746 Y57.015
G01 X58.757 Y57.029
G01 X58.767 Y57.042
G01 X58.778 Y57.056
G01 X58.788 Y57.070
G01 X58.797 Y57.085
G01 X58.807 Y57.099
G01 X58.817 Y57.113
G01 X58.819 Y57.117
G01 X58.828 Y57.131
G01 X58.838 Y57.145
G01 X58.847 Y57.159
G01 X58.856 Y57.173
G01 X58.864 Y57.188
G01 X58.873 Y57.202
G01 X58.881 Y57.216
G01 X58.889 Y57.231
G01 X58.891 Y57.234
G01 X58.899 Y57.249
G01 X58.907 Y57.263
G01 X58.915 Y57.277
G01 X58.923 Y57.292
G01 X58.930 Y57.306
G01 X58.937 Y57.320
G01 X58.944 Y57.335
G01 X58.951 Y57.349
G01 X58.952 Y57.352
G01 X58.959 Y57.366
G01 X58.966 Y57.381
G01 X58.973 Y57.395
G01 X58.979 Y57.409
G01 X58.985 Y57.424
G01 X58.991 Y57.438
G01 X58.997 Y57.453
G01 X59.002 Y57.467
G01 X59.003 Y57.468
G01 X59.009 Y57.483
G01 X59.014 Y57.497
G01 X59.020 Y57.511
G01 X59.025 Y57.526
G01 X59.030 Y57.540
G01 X59.035 Y57.554
G01 X59.040 Y57.569
G01 X59.044 Y57.582
G01 X59.049 Y57.597
G01 X59.054 Y57.611
G01 X59.059 Y57.625
G01 X59.063 Y57.639
G01 X59.067 Y57.654
G01 X59.071 Y57.668
G01 X59.075 Y57.682
G01 X59.078 Y57.694
G01 X59.082 Y57.708
G01 X59.087 Y57.722
G01 X59.091 Y57.736
G01 X59.094 Y57.750
G01 X59.098 Y57.764
G01 X59.101 Y57.779
G01 X59.104 Y57.793
G01 X59.106 Y57.802
G01 X59.110 Y57.815
G01 X59.114 Y57.829
G01 X59.117 Y57.844
G01 X59.121 Y57.858
G01 X59.124 Y57.872
G01 X59.127 Y57.886
G01 X59.129 Y57.900
G01 X59.130 Y57.906
G01 X59.134 Y57.920
G01 X59.138 Y57.934
G01 X59.141 Y57.948
G01 X59.144 Y57.962
G01 X59.147 Y57.976
G01 X59.150 Y57.990
G01 X59.152 Y58.004
G01 X59.152 Y58.007
G01 X59.156 Y58.021
G01 X59.160 Y58.035
G01 X59.163 Y58.048
G01 X59.166 Y58.062
G01 X59.169 Y58.076
G01 X59.171 Y58.090
G01 X59.174 Y58.104
G01 X59.174 Y58.105
G01 X59.178 Y58.118
G01 X59.181 Y58.131
G01 X59.185 Y58.145
G01 X59.188 Y58.158
G01 X59.191 Y58.172
G01 X59.194 Y58.186
G01 X59.196 Y58.198
G01 X59.200 Y58.211
G01 X59.204 Y58.224
G01 X59.208 Y58.237
G01 X59.212 Y58.250
G01 X59.215 Y58.263
G01 X59.218 Y58.277
G01 X59.221 Y58.288
G01 X59.226 Y58.300
G01 X59.230 Y58.312
G01 X59.235 Y58.324
G01 X59.239 Y58.337
G01 X59.243 Y58.349
G01 X59.246 Y58.362
G01 X59.249 Y58.372
G01 X59.255 Y58.383
G01 X59.260 Y58.395
G01 X59.265 Y58.406
G01 X59.270 Y58.418
G01 X59.274 Y58.430
G01 X59.279 Y58.442
G01 X59.282 Y58.451
G01 X59.288 Y58.461
G01 X59.294 Y58.472
G01 X59.300 Y58.482
G01 X59.306 Y58.493
G01 X59.312 Y58.504
G01 X59.317 Y58.515
G01 X59.321 Y58.523
G01 X59.328 Y58.533
G01 X59.335 Y58.542
G01 X59.342 Y58.552
G01 X59.349 Y58.562
G01 X59.355 Y58.572
G01 X59.361 Y58.582
G01 X59.366 Y58.589
G01 X59.374 Y58.598
G01 X59.382 Y58.606
G01 X59.390 Y58.615
G01 X59.398 Y58.624
G01 X59.405 Y58.633
G01 X59.413 Y58.642
G01 X59.418 Y58.648
G01 X59.427 Y58.655
G01 X59.436 Y58.663
G01 X59.445 Y58.671
G01 X59.454 Y58.678
G01 X59.462 Y58.686
G01 X59.471 Y58.694
G01 X59.476 Y58.700
G01 X59.487 Y58.706
G01 X59.497 Y58.713
G01 X59.507 Y58.719
G01 X59.517 Y58.726
G01 X59.526 Y58.733
G01 X59.536 Y58.740
G01 X59.541 Y58.745
G01 X59.553 Y58.750
G01 X59.564 Y58.755
G01 X59.575 Y58.761
G01 X59.586 Y58.767
G01 X59.596 Y58.773
G01 X59.607 Y58.779
G01 X59.612 Y58.783
G01 X59.625 Y58.787
G01 X59.636 Y58.791
G01 X59.648 Y58.796
G01 X59.660 Y58.801
G01 X59.672 Y58.806
G01 X59.683 Y58.812
G01 X59.688 Y58.814
G01 X59.701 Y58.818
G01 X59.714 Y58.822
G01 X59.727 Y58.826
G01 X59.739 Y58.830
G01 X59.751 Y58.834
G01 X59.764 Y58.839
G01 X59.768 Y58.841
G01 X59.782 Y58.843
G01 X59.795 Y58.846
G01 X59.809 Y58.849
G01 X59.822 Y58.853
G01 X59.835 Y58.856
G01 X59.848 Y58.860
G01 X59.852 Y58.862
G01 X59.866 Y58.864
G01 X59.880 Y58.866
G01 X59.894 Y58.868
G01 X59.908 Y58.871
G01 X59.921 Y58.874
G01 X59.935 Y58.877
G01 X59.938 Y58.878
G01 X59.952 Y58.879
G01 X59.967 Y58.881
G01 X59.981 Y58.883
G01 X59.996 Y58.885
G01 X60.010 Y58.887
G01 X60.024 Y58.890
G01 X60.025 Y58.890
G01 X60.040 Y58.891
G01 X60.055 Y58.892
G01 X60.070 Y58.893
G01 X60.085 Y58.894
G01 X60.099 Y58.896
G01 X60.114 Y58.898
G01 X60.114 Y58.898
G01 X60.129 Y58.898
G01 X60.145 Y58.899
G01 X60.160 Y58.899
G01 X60.175 Y58.900
G01 X60.190 Y58.901
G01 X60.204 Y58.903
G01 X60.219 Y58.902
G01 X60.234 Y58.902
G01 X60.250 Y58.902
G01 X60.265 Y58.903
G01 X60.280 Y58.904
G01 X60.293 Y58.904
G01 X60.309 Y58.904
G01 X60.324 Y58.903
G01 X60.339 Y58.903
G01 X60.354 Y58.903
G01 X60.370 Y58.903
G01 X60.382 Y58.903
G01 X60.398 Y58.902
G01 X60.413 Y58.901
G01 X60.428 Y58.900
G01 X60.443 Y58.900
G01 X60.459 Y58.900
G01 X60.470 Y58.900
G01 X60.485 Y58.898
G01 X60.501 Y58.897
G01 X60.516 Y58.896
G01 X60.531 Y58.895
G01 X60.546 Y58.895
G01 X60.557 Y58.894
G01 X60.572 Y58.893
G01 X60.587 Y58.891
G01 X60.602 Y58.890
G01 X60.617 Y58.889
G01 X60.632 Y58.888
G01 X60.641 Y58.888
G01 X60.656 Y58.886
G01 X60.671 Y58.884
G01 X60.685 Y58.883
G01 X60.700 Y58.881
G01 X60.715 Y58.880
G01 X60.723 Y58.880
G01 X60.737 Y58.878
G01 X60.752 Y58.876
G01 X60.766 Y58.874
G01 X60.781 Y58.873
G01 X60.796 Y58.872
G01 X60.801 Y58.871
G01 X60.815 Y58.869
G01 X60.830 Y58.867
G01 X60.844 Y58.865
G01 X60.858 Y58.864
G01 X60.873 Y58.863
G01 X60.875 Y58.862
G01 X60.889 Y58.860
G01 X60.903 Y58.858
G01 X60.917 Y58.856
G01 X60.932 Y58.854
G01 X60.944 Y58.853
G01 X60.958 Y58.851
G01 X60.971 Y58.848
G01 X60.985 Y58.846
G01 X61.000 Y58.845
G01 X61.007 Y58.844
G01 X61.020 Y58.841
G01 X61.034 Y58.838
G01 X61.047 Y58.836
G01 X61.061 Y58.834
G01 X61.063 Y58.834
G01 X61.076 Y58.831
G01 X61.089 Y58.828
G01 X61.102 Y58.826
G01 X61.110 Y58.824
G01 X61.123 Y58.821
G01 X61.136 Y58.818
G01 X61.149 Y58.815
G01 X61.149 Y58.815
G01 X61.161 Y58.811
G01 X61.173 Y58.807
G01 X61.178 Y58.805
G01 X61.190 Y58.800
G01 X61.198 Y58.797
G01 X61.206 Y58.789
G01 X61.214 Y58.781
G01 X61.222 Y58.773
G01 X61.230 Y58.765
G01 X61.238 Y58.757
G01 X61.246 Y58.749
G01 X61.254 Y58.741
G01 X61.262 Y58.733
G01 X61.270 Y58.725
G01 X61.277 Y58.718
G01 X61.285 Y58.710
G01 X61.293 Y58.702
G01 X61.301 Y58.694
G01 X61.309 Y58.686
G01 X61.316 Y58.678
G01 X61.324 Y58.671
G01 X61.332 Y58.663
G01 X61.340 Y58.655
G01 X61.347 Y58.647
G01 X61.355 Y58.640
G01 X61.363 Y58.632
G01 X61.371 Y58.624
G01 X61.378 Y58.617
G01 X61.386 Y58.609
G01 X61.394 Y58.601
G01 X61.401 Y58.594
G01 X61.409 Y58.586
G01 X61.417 Y58.578
G01 X61.424 Y58.570
G01 X61.432 Y58.563
G01 X61.440 Y58.555
G01 X61.447 Y58.548
G01 X61.455 Y58.540
G01 X61.463 Y58.532
G01 X61.470 Y58.525
G01 X61.478 Y58.517
G01 X61.486 Y58.509
G01 X61.493 Y58.502
G01 X61.500 Y58.500

